;Generated with Cura_SteamEngine 13.11.2
M109 T0 S230.000000
T0
;Sliced ?filename? at: Sat 15-02-2014 23:59:11
;Basic settings: Layer height: 0.2 Walls: 0.4 Fill: 30
;Print time: #P_TIME#
;Filament used: #F_AMNT#m #F_WGHT#g
;Filament cost: #F_COST#
G21        ;metric values
G90        ;absolute positioning
M107       ;start with the fan off
G28 X0 Y0  ;move X/Y to min endstops
G28 Z0     ;move Z to min endstops
G92 X0 Y0 Z0 E0         ;reset software position to front/left/z=0.0
G1 Z15.0 F?max_z_speed? ;move the platform down 15mm
G92 E0                  ;zero the extruded length
G1 F200 E10              ;extrude 3mm of feed stock
;E10 ipv E3 voor kop voldoende te vullen
G92 E0                  ;zero the extruded length again
;go to the middle of the platform (disabled, as there is no need to go to the center)
;G1 X?machine_center_x? Y?machine_center_y? F9000
G1 F9000

;Layer count: 25
;LAYER:0
M107
G0 F3600 X70.23 Y94.75 Z0.30
;TYPE:SKIRT
G1 F2400 E0.00000
G1 F1200 X70.84 Y94.30 E0.01378
G1 X71.01 Y94.20 E0.01748
G1 X71.67 Y93.83 E0.03127
G1 X71.86 Y93.75 E0.03497
G1 X72.56 Y93.47 E0.04876
G1 X72.75 Y93.41 E0.05238
G1 X73.47 Y93.22 E0.06615
G1 X73.67 Y93.18 E0.06988
G1 X74.42 Y93.09 E0.08365
G1 X74.62 Y93.08 E0.08726
G1 X77.69 Y93.07 E0.14353
G1 X77.78 Y92.95 E0.14634
G1 X78.51 Y92.31 E0.16408
G1 X79.10 Y91.98 E0.17635
G1 X79.88 Y91.73 E0.19125
G1 X80.32 Y91.66 E0.19955
G1 X81.21 Y91.64 E0.21580
G1 X81.67 Y91.75 E0.22450
G1 X82.01 Y91.61 E0.23120
G1 X83.05 Y91.54 E0.25022
G1 X84.36 Y91.87 E0.27507
G1 X85.09 Y92.28 E0.29036
G1 X85.83 Y92.99 E0.30899
G1 X86.01 Y92.76 E0.31429
G1 X86.89 Y92.10 E0.33444
G1 X87.48 Y91.82 E0.34642
G1 X88.44 Y91.58 E0.36457
G1 X89.09 Y91.56 E0.37644
G1 X90.14 Y91.73 E0.39584
G1 X90.92 Y92.09 E0.41162
G1 X90.96 Y92.13 E0.41267
G1 X91.23 Y92.23 E0.41786
G1 X91.72 Y92.52 E0.42831
G1 X92.19 Y92.09 E0.43999
G1 X93.37 Y91.68 E0.46282
G1 X93.83 Y91.59 E0.47146
G1 X94.61 Y91.56 E0.48579
G1 X94.94 Y91.58 E0.49170
G1 X95.70 Y91.71 E0.50584
G1 X96.32 Y91.95 E0.51805
G1 X96.71 Y92.20 E0.52655
G1 X97.25 Y91.97 E0.53738
G1 X98.20 Y91.76 E0.55516
G1 X98.91 Y91.76 E0.56811
G1 X99.94 Y92.00 E0.58738
G1 X100.66 Y92.37 E0.60228
G1 X100.66 Y92.37 E0.60231
G1 X101.34 Y92.67 E0.61590
G1 X101.67 Y93.07 E0.62537
G1 X125.38 Y93.08 E1.05894
G1 X125.58 Y93.09 E1.06261
G1 X126.32 Y93.18 E1.07640
G1 X126.52 Y93.22 E1.08013
G1 X127.25 Y93.41 E1.09390
G1 X127.44 Y93.47 E1.09752
G1 X128.14 Y93.75 E1.11131
G1 X128.32 Y93.83 E1.11501
G1 X128.99 Y94.20 E1.12880
G1 X129.16 Y94.30 E1.13250
G1 X129.77 Y94.75 E1.14628
G1 X129.92 Y94.87 E1.14993
G1 X130.47 Y95.39 E1.16373
G1 X130.61 Y95.54 E1.16744
G1 X131.09 Y96.12 E1.18125
G1 X131.21 Y96.28 E1.18493
G1 X131.61 Y96.92 E1.19871
G1 X131.71 Y97.10 E1.20240
G1 X132.03 Y97.78 E1.21616
G1 X132.10 Y97.96 E1.21981
G1 X132.34 Y98.68 E1.23357
G1 X132.38 Y98.87 E1.23725
G1 X132.53 Y99.61 E1.25103
G1 X132.55 Y99.81 E1.25474
G1 X132.60 Y100.57 E1.26863
G1 X132.60 Y100.78 E1.27251
G1 X132.54 Y101.57 E1.28689
G1 X132.52 Y101.77 E1.29058
G1 X132.37 Y102.51 E1.30436
G1 X132.32 Y102.70 E1.30803
G1 X132.08 Y103.42 E1.32181
G1 X132.01 Y103.60 E1.32548
G1 X131.69 Y104.28 E1.33916
G1 X131.59 Y104.44 E1.34268
G1 X131.20 Y105.06 E1.35598
G1 X131.08 Y105.23 E1.35983
G1 X130.57 Y105.83 E1.37418
G1 X130.44 Y105.97 E1.37784
G1 X129.88 Y106.49 E1.39163
G1 X129.73 Y106.61 E1.39532
G1 X129.12 Y107.05 E1.40911
G1 X128.95 Y107.16 E1.41279
G1 X128.28 Y107.52 E1.42660
G1 X128.10 Y107.61 E1.43035
G1 X127.40 Y107.88 E1.44400
G1 X127.22 Y107.93 E1.44736
G1 X126.53 Y108.11 E1.46056
G1 X126.33 Y108.15 E1.46430
G1 X125.58 Y108.25 E1.47813
G1 X125.38 Y108.26 E1.48178
G1 X83.37 Y108.27 E2.25019
G1 X82.78 Y108.46 E2.26161
G1 X81.59 Y108.39 E2.28341
G1 X81.30 Y108.27 E2.28911
G1 X74.59 Y108.25 E2.41197
G1 X74.38 Y108.24 E2.41577
G1 X73.63 Y108.14 E2.42964
G1 X73.43 Y108.10 E2.43341
G1 X72.70 Y107.91 E2.44719
G1 X72.51 Y107.85 E2.45075
G1 X71.82 Y107.57 E2.46451
G1 X71.63 Y107.48 E2.46825
G1 X70.97 Y107.11 E2.48203
G1 X70.81 Y107.00 E2.48568
G1 X70.20 Y106.56 E2.49938
G1 X70.05 Y106.44 E2.50291
G1 X69.52 Y105.94 E2.51624
G1 X69.38 Y105.78 E2.52011
G1 X68.88 Y105.17 E2.53448
G1 X68.77 Y105.01 E2.53816
G1 X68.37 Y104.38 E2.55182
G1 X68.28 Y104.22 E2.55522
G1 X67.97 Y103.56 E2.56850
G1 X67.89 Y103.36 E2.57247
G1 X67.66 Y102.61 E2.58677
G1 X67.61 Y102.43 E2.59020
G1 X67.47 Y101.72 E2.60339
G1 X67.45 Y101.52 E2.60708
G1 X67.40 Y100.77 E2.62088
G1 X67.40 Y100.57 E2.62458
G1 X67.45 Y99.81 E2.63840
G1 X67.47 Y99.61 E2.64211
G1 X67.61 Y98.87 E2.65587
G1 X67.66 Y98.68 E2.65950
G1 X67.90 Y97.96 E2.67328
G1 X67.97 Y97.77 E2.67702
G1 X68.29 Y97.09 E2.69082
G1 X68.39 Y96.92 E2.69444
G1 X68.79 Y96.28 E2.70820
G1 X68.91 Y96.12 E2.71188
G1 X69.39 Y95.54 E2.72570
G1 X69.53 Y95.39 E2.72941
G1 X70.08 Y94.87 E2.74321
G1 X70.23 Y94.75 E2.74686
G0 F3600 X72.51 Y97.67
G0 X72.51 Y97.67
G0 X72.32 Y97.43
;TYPE:WALL-OUTER
G1 F1200 X72.76 Y97.12 E2.75665
G1 X73.21 Y96.87 E2.76615
G1 X73.70 Y96.67 E2.77575
G1 X74.22 Y96.54 E2.78559
G1 X74.73 Y96.48 E2.79505
G1 X80.10 Y96.47 E2.89325
G1 X80.22 Y96.35 E2.89621
G1 X80.24 Y95.47 E2.91243
G1 X80.34 Y95.22 E2.91725
G1 X80.47 Y95.11 E2.92038
G1 X80.65 Y95.06 E2.92372
G1 X80.82 Y95.05 E2.92686
G1 X81.03 Y95.16 E2.93119
G1 X81.28 Y95.43 E2.93779
G1 X81.84 Y96.14 E2.95448
G1 X82.08 Y96.09 E2.95903
G1 X82.26 Y95.39 E2.97231
G1 X82.50 Y95.07 E2.97948
G1 X82.77 Y94.98 E2.98478
G1 X83.07 Y95.05 E2.99045
G1 X83.35 Y95.32 E2.99755
G1 X83.96 Y96.41 E3.02043
G1 X84.06 Y96.47 E3.02239
G1 X88.02 Y96.47 E3.09484
G1 X88.32 Y96.47 E3.10034
G1 X88.44 Y96.32 E3.10380
G1 X88.36 Y95.93 E3.11110
G1 X88.31 Y95.46 E3.11964
G1 X88.43 Y95.19 E3.12502
G1 X88.64 Y95.03 E3.12991
G1 X88.89 Y94.97 E3.13460
G1 X89.10 Y95.01 E3.13842
G1 X89.39 Y95.25 E3.14538
G1 X89.44 Y95.27 E3.14642
G1 X89.78 Y95.32 E3.15266
G1 X89.89 Y95.39 E3.15502
G1 X90.02 Y95.61 E3.15967
G1 X90.19 Y96.38 E3.17406
G1 X90.31 Y96.47 E3.17670
G1 X94.10 Y96.47 E3.24607
G1 X94.22 Y96.32 E3.24959
G1 X93.96 Y95.17 E3.27110
G1 X94.01 Y95.06 E3.27334
G1 X94.23 Y94.98 E3.27754
G1 X94.57 Y94.97 E3.28377
G1 X94.78 Y95.00 E3.28766
G1 X95.11 Y95.22 E3.29480
G1 X95.30 Y95.50 E3.30109
G1 X95.61 Y96.39 E3.31842
G1 X95.72 Y96.47 E3.32074
G1 X96.56 Y96.47 E3.33614
G1 X96.64 Y96.43 E3.33776
G1 X96.72 Y96.33 E3.34011
G1 X96.86 Y96.28 E3.34273
G1 X97.02 Y96.28 E3.34566
G1 X97.18 Y96.37 E3.34897
G1 X97.23 Y96.43 E3.35050
G1 X97.31 Y96.47 E3.35212
G1 X98.03 Y96.47 E3.36519
G1 X98.15 Y96.31 E3.36874
G1 X98.03 Y95.85 E3.37754
G1 X98.03 Y95.54 E3.38323
G1 X98.14 Y95.34 E3.38734
G1 X98.33 Y95.21 E3.39147
G1 X98.54 Y95.17 E3.39544
G1 X98.73 Y95.21 E3.39900
G1 X98.88 Y95.34 E3.40272
G1 X98.96 Y95.48 E3.40562
G1 X99.08 Y95.54 E3.40802
G1 X99.24 Y95.51 E3.41115
G1 X99.28 Y95.50 E3.41186
G1 X99.35 Y95.58 E3.41370
G1 X99.56 Y96.38 E3.42877
G1 X99.67 Y96.47 E3.43136
G1 X125.27 Y96.48 E3.89968
G1 X125.78 Y96.54 E3.90914
G1 X126.30 Y96.67 E3.91898
G1 X126.79 Y96.87 E3.92858
G1 X127.24 Y97.12 E3.93807
G1 X127.68 Y97.43 E3.94787
G1 X128.06 Y97.80 E3.95758
G1 X128.40 Y98.20 E3.96707
G1 X128.68 Y98.64 E3.97680
G1 X128.90 Y99.12 E3.98646
G1 X129.07 Y99.62 E3.99612
G1 X129.16 Y100.13 E4.00558
G1 X129.20 Y100.67 E4.01537
G1 X129.16 Y101.22 E4.02560
G1 X129.06 Y101.73 E4.03509
G1 X128.89 Y102.24 E4.04489
G1 X128.67 Y102.71 E4.05436
G1 X128.40 Y103.14 E4.06367
G1 X128.05 Y103.56 E4.07362
G1 X127.66 Y103.92 E4.08333
G1 X127.22 Y104.23 E4.09312
G1 X126.77 Y104.48 E4.10259
G1 X126.27 Y104.67 E4.11232
G1 X125.78 Y104.79 E4.12159
G1 X125.27 Y104.86 E4.13105
G1 X82.78 Y104.87 E4.90838
G1 X82.70 Y104.90 E4.90982
G1 X82.68 Y104.92 E4.91035
G1 X82.37 Y105.02 E4.91633
G1 X82.02 Y104.87 E4.92340
G1 X74.71 Y104.86 E5.05707
G1 X74.19 Y104.79 E5.06667
G1 X73.69 Y104.65 E5.07617
G1 X73.19 Y104.45 E5.08603
G1 X72.73 Y104.20 E5.09566
G1 X72.31 Y103.89 E5.10516
G1 X71.94 Y103.54 E5.11446
G1 X71.59 Y103.12 E5.12444
G1 X71.31 Y102.67 E5.13419
G1 X71.09 Y102.21 E5.14338
G1 X70.93 Y101.68 E5.15357
G1 X70.83 Y101.20 E5.16253
G1 X70.80 Y100.67 E5.17228
G1 X70.83 Y100.13 E5.18209
G1 X70.93 Y99.62 E5.19157
G1 X71.09 Y99.12 E5.20121
G1 X71.32 Y98.64 E5.21087
G1 X71.61 Y98.20 E5.22060
G1 X71.94 Y97.80 E5.23010
G1 X72.32 Y97.43 E5.23980
G0 F3600 X73.26 Y98.60
G1 F1200 X73.02 Y98.84 E5.24604
G1 X72.80 Y99.10 E5.25222
G1 X72.63 Y99.38 E5.25819
G1 X72.48 Y99.69 E5.26458
G1 X72.38 Y100.00 E5.27050
G1 X72.32 Y100.33 E5.27670
G1 X72.30 Y100.67 E5.28294
G1 X72.32 Y101.01 E5.28913
G1 X72.39 Y101.34 E5.29534
G1 X72.49 Y101.67 E5.30154
G1 X72.64 Y101.97 E5.30773
G1 X72.82 Y102.26 E5.31393
G1 X73.04 Y102.52 E5.32014
G1 X73.28 Y102.75 E5.32635
G1 X73.56 Y102.95 E5.33254
G1 X73.84 Y103.11 E5.33851
G1 X74.17 Y103.24 E5.34495
G1 X74.50 Y103.32 E5.35115
G1 X74.84 Y103.36 E5.35737
G1 X75.17 Y103.36 E5.36353
G1 X75.51 Y103.32 E5.36977
G1 X75.84 Y103.23 E5.37595
G1 X76.16 Y103.11 E5.38216
G1 X76.45 Y102.94 E5.38836
G1 X76.72 Y102.74 E5.39456
G1 X76.97 Y102.51 E5.40077
G1 X77.19 Y102.25 E5.40697
G1 X77.37 Y101.96 E5.41317
G1 X77.51 Y101.66 E5.41936
G1 X77.61 Y101.33 E5.42556
G1 X77.68 Y101.00 E5.43176
G1 X77.70 Y100.66 E5.43798
G1 X77.67 Y100.31 E5.44449
G1 X77.61 Y99.97 E5.45068
G1 X77.50 Y99.66 E5.45668
G1 X77.50 Y99.65 E5.45691
G1 X77.35 Y99.35 E5.46309
G1 X77.17 Y99.06 E5.46930
G1 X76.95 Y98.80 E5.47547
G1 X76.71 Y98.58 E5.48143
G1 X76.43 Y98.38 E5.48788
G1 X76.14 Y98.22 E5.49386
G1 X76.13 Y98.22 E5.49410
G1 X75.81 Y98.09 E5.50030
G1 X75.48 Y98.01 E5.50649
G1 X75.16 Y97.97 E5.51243
G1 X74.81 Y97.97 E5.51887
G1 X74.47 Y98.02 E5.52509
G1 X74.14 Y98.11 E5.53129
G1 X73.83 Y98.23 E5.53748
G1 X73.55 Y98.39 E5.54340
G1 X73.26 Y98.60 E5.54988
G0 F3600 X73.07 Y98.37
G0 X74.42 Y97.62
G0 X76.32 Y97.86
G0 X88.45 Y97.69
G0 X88.75 Y97.70
G1 F1200 X88.75 Y101.62 E5.62169
G1 X88.82 Y102.03 E5.62933
G1 X88.98 Y102.36 E5.63599
G1 X89.26 Y102.61 E5.64288
G1 X89.30 Y102.64 E5.64376
G1 X89.61 Y102.72 E5.64956
G1 X91.44 Y102.72 E5.68294
G1 X91.46 Y102.72 E5.68340
G1 X91.77 Y102.64 E5.68920
G1 X91.81 Y102.61 E5.69008
G1 X92.07 Y102.39 E5.69631
G1 X92.09 Y102.36 E5.69699
G1 X92.27 Y102.00 E5.70425
G1 X92.32 Y101.62 E5.71130
G1 X92.33 Y99.34 E5.75313
G1 X92.32 Y99.32 E5.75341
G1 X92.26 Y98.91 E5.76105
G1 X92.09 Y98.58 E5.76772
G1 X92.07 Y98.56 E5.76839
G1 X91.81 Y98.33 E5.77463
G1 X91.77 Y98.31 E5.77549
G1 X91.46 Y98.23 E5.78129
G1 X89.73 Y98.23 E5.81296
G1 X89.73 Y97.77 E5.82137
G1 X91.66 Y97.77 E5.85661
G1 X91.78 Y97.65 E5.85966
G1 X91.78 Y96.72 E5.87664
G1 X91.66 Y96.60 E5.87968
G1 X89.61 Y96.61 E5.91712
G1 X89.30 Y96.69 E5.92293
G1 X89.26 Y96.71 E5.92380
G1 X89.01 Y96.93 E5.93002
G1 X88.98 Y96.96 E5.93070
G1 X88.81 Y97.32 E5.93794
G1 X88.75 Y97.70 E5.94499
G1 F2400 E1.44499
G0 F3600 X92.63 Y101.60
G1 F2400 E5.94499
G1 F1200 X92.51 Y101.72 E5.94802
G1 X92.51 Y102.64 E5.96497
G1 X92.63 Y102.76 E5.96801
G1 X94.51 Y102.76 E6.00244
G1 X94.82 Y102.68 E6.00830
G1 X94.86 Y102.65 E6.00917
G1 X95.12 Y102.43 E6.01541
G1 X95.14 Y102.40 E6.01607
G1 X95.32 Y102.05 E6.02337
G1 X95.38 Y101.67 E6.03040
G1 X95.38 Y98.39 E6.09040
G1 X95.26 Y98.27 E6.09344
G1 X94.51 Y98.27 E6.10722
G1 X94.39 Y98.39 E6.11025
G1 X94.39 Y101.60 E6.16902
G1 X92.63 Y101.60 E6.20129
G0 F3600 X95.62 Y101.66
G1 F1200 X95.69 Y102.08 E6.20893
G1 X95.86 Y102.40 E6.21560
G1 X96.14 Y102.65 E6.22249
G1 X96.18 Y102.68 E6.22334
G1 X96.48 Y102.76 E6.22915
G1 X98.31 Y102.76 E6.26255
G1 X98.34 Y102.76 E6.26303
G1 X98.64 Y102.68 E6.26883
G1 X98.69 Y102.65 E6.26969
G1 X98.94 Y102.43 E6.27593
G1 X98.96 Y102.40 E6.27661
G1 X99.14 Y102.05 E6.28386
G1 X99.20 Y101.67 E6.29090
G1 X99.20 Y99.38 E6.33275
G1 X99.20 Y99.36 E6.33303
G1 X99.13 Y98.95 E6.34065
G1 X98.96 Y98.63 E6.34731
G1 X98.69 Y98.37 E6.35423
G1 X98.64 Y98.35 E6.35511
G1 X98.34 Y98.27 E6.36090
G1 X98.31 Y98.27 E6.36136
G1 X96.49 Y98.27 E6.39475
G1 X96.18 Y98.35 E6.40057
G1 X96.14 Y98.37 E6.40144
G1 X95.88 Y98.60 E6.40766
G1 X95.86 Y98.63 E6.40834
G1 X95.68 Y98.98 E6.41561
G1 X95.62 Y99.36 E6.42264
G1 X95.62 Y101.66 E6.46473
G1 F2400 E1.96473
G0 F3600 X100.47 Y99.30
G1 F2400 E6.46473
G1 F1200 X100.58 Y99.42 E6.46777
G1 X101.28 Y99.42 E6.48045
G1 X101.39 Y99.30 E6.48350
G1 X101.39 Y98.38 E6.50046
G1 X101.28 Y98.26 E6.50350
G1 X100.58 Y98.26 E6.51618
G1 X100.47 Y98.38 E6.51921
G1 X100.47 Y99.30 E6.53616
G0 F3600 X100.17 Y99.30
G0 X100.08 Y98.22
G0 X100.42 Y97.87
G0 X101.43 Y97.87
G0 X101.78 Y98.22
G0 X102.20 Y99.35
G0 X102.50 Y99.36
G1 F1200 X102.50 Y101.66 E6.57826
G1 X102.57 Y102.08 E6.58589
G1 X102.73 Y102.40 E6.59256
G1 X103.01 Y102.65 E6.59945
G1 X103.05 Y102.68 E6.60031
G1 X103.36 Y102.76 E6.60611
G1 X105.09 Y102.76 E6.63782
G1 X105.09 Y103.98 E6.66019
G1 X105.21 Y104.10 E6.66323
G1 X105.96 Y104.10 E6.67689
G1 X106.08 Y103.98 E6.67995
G1 X106.08 Y102.21 E6.71234
G1 X106.19 Y102.43 E6.71687
G1 X106.45 Y102.65 E6.72311
G1 X106.49 Y102.68 E6.72396
G1 X106.82 Y102.76 E6.73022
G1 X109.39 Y102.76 E6.77726
G1 X109.51 Y102.64 E6.78031
G1 X109.51 Y101.72 E6.79727
G1 X109.39 Y101.60 E6.80031
G1 X106.92 Y101.60 E6.84560
G1 X106.92 Y101.09 E6.85480
G1 X109.39 Y101.09 E6.90010
G1 X109.51 Y100.98 E6.90315
G1 X109.51 Y99.36 E6.93269
G1 X109.44 Y98.95 E6.94030
G1 X109.25 Y98.60 E6.94764
G1 X109.00 Y98.37 E6.95388
G1 X108.96 Y98.35 E6.95476
G1 X108.65 Y98.27 E6.96056
G1 X106.05 Y98.27 E7.00803
G1 X106.01 Y98.32 E7.00927
G1 X105.96 Y98.27 E7.01053
G1 X103.36 Y98.27 E7.05802
G1 X103.05 Y98.35 E7.06383
G1 X103.01 Y98.37 E7.06471
G1 X102.76 Y98.60 E7.07093
G1 X102.73 Y98.63 E7.07161
G1 X102.56 Y98.98 E7.07888
G1 X102.50 Y99.36 E7.08591
G0 F3600 X102.20 Y99.35
G0 X102.47 Y98.33
G0 X103.36 Y97.87
G0 X109.23 Y98.04
G0 X109.91 Y99.31
G0 X110.21 Y99.31
G1 F1200 X110.33 Y99.43 E7.08895
G1 X111.13 Y99.43 E7.10358
G1 X111.13 Y103.98 E7.18687
G1 X111.24 Y104.10 E7.18991
G1 X112.17 Y104.10 E7.20687
G1 X112.29 Y103.98 E7.20992
G1 X112.28 Y99.36 E7.29459
G1 X112.19 Y98.93 E7.30248
G1 X111.97 Y98.61 E7.30966
G1 X111.95 Y98.58 E7.31038
G1 X111.58 Y98.34 E7.31828
G1 X111.18 Y98.27 E7.32582
G1 X110.33 Y98.27 E7.34144
G1 X110.21 Y98.39 E7.34447
G1 X110.21 Y99.31 E7.36143
G0 F3600 X112.81 Y99.31
G1 F1200 X112.93 Y99.43 E7.36447
G1 X115.41 Y99.43 E7.40978
G1 X115.41 Y99.93 E7.41898
G1 X112.93 Y99.93 E7.46429
G1 X112.81 Y100.05 E7.46732
G1 X112.81 Y101.67 E7.49687
G1 X112.88 Y102.08 E7.50447
G1 X113.07 Y102.43 E7.51181
G1 X113.32 Y102.65 E7.51803
G1 X113.36 Y102.68 E7.51889
G1 X113.67 Y102.76 E7.52469
G1 X115.50 Y102.76 E7.55812
G1 X115.53 Y102.76 E7.55860
G1 X115.83 Y102.68 E7.56440
G1 X115.87 Y102.65 E7.56526
G1 X116.15 Y102.40 E7.57215
G1 X116.31 Y102.10 E7.57841
G1 X116.42 Y102.40 E7.58434
G1 X116.60 Y102.63 E7.58967
G1 X116.64 Y102.67 E7.59070
G1 X116.90 Y102.76 E7.59581
G1 X119.71 Y102.76 E7.64709
G1 X119.83 Y102.64 E7.65014
G1 X119.83 Y98.39 E7.72801
G1 X119.71 Y98.27 E7.73105
G1 X119.05 Y98.27 E7.74304
G1 X118.94 Y98.39 E7.74606
G1 X118.93 Y101.60 E7.80484
G1 X118.43 Y101.60 E7.81389
G1 X118.43 Y98.39 E7.87267
G1 X118.31 Y98.27 E7.87571
G1 X117.67 Y98.27 E7.88755
G1 X117.55 Y98.39 E7.89057
G1 X117.55 Y101.60 E7.94935
G1 X117.22 Y101.60 E7.95546
G1 X117.22 Y98.39 E8.01424
G1 X117.10 Y98.27 E8.01728
G1 X116.37 Y98.27 E8.03065
G1 X116.25 Y98.39 E8.03368
G1 X116.25 Y98.82 E8.04162
G1 X116.15 Y98.63 E8.04557
G1 X116.13 Y98.60 E8.04625
G1 X115.87 Y98.37 E8.05246
G1 X115.83 Y98.35 E8.05334
G1 X115.52 Y98.27 E8.05916
G1 X112.93 Y98.27 E8.10663
G1 X112.81 Y98.39 E8.10966
G1 X112.81 Y99.31 E8.12661
G1 F2400 E3.62661
G0 F3600 X120.92 Y98.39
G1 F2400 E8.12661
G1 F1200 X120.92 Y102.64 E8.20449
G1 X121.04 Y102.76 E8.20753
G1 X121.82 Y102.76 E8.22185
G1 X121.94 Y102.64 E8.22491
G1 X121.94 Y98.39 E8.30278
G1 X121.82 Y98.27 E8.30582
G1 X121.04 Y98.27 E8.32014
G1 X120.92 Y98.39 E8.32317
G0 F3600 X120.62 Y98.39
G0 X120.88 Y97.88
G0 X121.98 Y97.88
G0 X123.68 Y98.39
G0 X123.98 Y98.39
G1 F1200 X123.98 Y99.31 E8.34013
G1 X124.10 Y99.43 E8.34317
G1 X125.32 Y99.43 E8.36545
G1 X125.32 Y101.60 E8.40511
G1 X124.10 Y101.60 E8.42739
G1 X123.98 Y101.72 E8.43042
G1 X123.98 Y102.64 E8.44738
G1 X124.10 Y102.76 E8.45042
G1 X125.32 Y102.76 E8.47270
G1 X125.32 Y103.98 E8.49507
G1 X125.43 Y104.10 E8.49811
