;Generated with Cura_SteamEngine 13.11.2
M109 T0 S230.000000
T0
;Sliced ?filename? at: Sat 15-02-2014 23:37:49
;Basic settings: Layer height: 0.2 Walls: 0.4 Fill: 30
;Print time: #P_TIME#
;Filament used: #F_AMNT#m #F_WGHT#g
;Filament cost: #F_COST#
G21        ;metric values
G90        ;absolute positioning
M107       ;start with the fan off
G28 X0 Y0  ;move X/Y to min endstops
G28 Z0     ;move Z to min endstops
G92 X0 Y0 Z0 E0         ;reset software position to front/left/z=0.0
G1 Z15.0 F?max_z_speed? ;move the platform down 15mm
G92 E0                  ;zero the extruded length
G1 F200 E10              ;extrude 3mm of feed stock
;E10 ipv E3 voor kop voldoende te vullen
G92 E0                  ;zero the extruded length again
;go to the middle of the platform (disabled, as there is no need to go to the center)
;G1 X?machine_center_x? Y?machine_center_y? F9000
G1 F9000

;Layer count: 25
;LAYER:0
M107
G0 F3600 X73.56 Y93.98 Z0.30
;TYPE:SKIRT
G1 F2400 E0.00000
G1 F1200 X74.19 Y93.53 E0.01423
G1 X74.38 Y93.40 E0.01840
G1 X75.06 Y93.03 E0.03265
G1 X75.27 Y92.93 E0.03683
G1 X75.99 Y92.65 E0.05105
G1 X76.21 Y92.58 E0.05513
G1 X76.96 Y92.38 E0.06936
G1 X77.18 Y92.34 E0.07355
G1 X77.96 Y92.24 E0.08778
G1 X78.18 Y92.23 E0.09185
G1 X80.18 Y92.22 E0.12844
G1 X80.46 Y91.92 E0.13597
G1 X81.49 Y91.28 E0.15814
G1 X82.31 Y91.01 E0.17394
G1 X83.24 Y90.93 E0.19112
G1 X83.65 Y90.94 E0.19866
G1 X84.13 Y91.01 E0.20744
G1 X86.11 Y91.25 E0.24403
G1 X86.39 Y91.30 E0.24923
G1 X87.16 Y91.52 E0.26376
G1 X87.62 Y91.72 E0.27295
G1 X88.07 Y92.00 E0.28269
G1 X88.28 Y91.98 E0.28657
G1 X88.60 Y91.96 E0.29235
G1 X88.90 Y91.98 E0.29788
G1 X89.26 Y91.85 E0.30482
G1 X90.32 Y91.72 E0.32448
G1 X91.04 Y91.78 E0.33767
G1 X92.15 Y92.10 E0.35869
G1 X92.35 Y92.22 E0.36299
G1 X96.30 Y92.22 E0.43525
G1 X96.73 Y91.89 E0.44521
G1 X96.90 Y91.78 E0.44891
G1 X97.48 Y91.45 E0.46108
G1 X97.62 Y91.37 E0.46409
G1 X98.23 Y91.08 E0.47646
G1 X98.40 Y91.02 E0.47970
G1 X99.05 Y90.79 E0.49233
G1 X99.19 Y90.75 E0.49493
G1 X99.76 Y90.59 E0.50578
G1 X100.03 Y90.54 E0.51081
G1 X101.38 Y90.39 E0.53569
G1 X101.76 Y90.39 E0.54269
G1 X103.17 Y90.54 E0.56850
G1 X103.40 Y90.58 E0.57284
G1 X104.01 Y90.73 E0.58436
G1 X104.15 Y90.77 E0.58698
G1 X104.83 Y90.99 E0.60005
G1 X105.00 Y91.06 E0.60333
G1 X105.78 Y91.40 E0.61907
G1 X105.94 Y91.48 E0.62226
G1 X106.75 Y91.94 E0.63924
G1 X106.91 Y92.04 E0.64273
G1 X107.17 Y92.22 E0.64850
G1 X107.34 Y92.22 E0.65164
G1 X107.75 Y91.70 E0.66381
G1 X107.96 Y91.48 E0.66938
G1 X108.60 Y90.91 E0.68493
G1 X108.86 Y90.72 E0.69087
G1 X109.84 Y90.12 E0.71195
G1 X110.07 Y90.00 E0.71671
G1 X110.75 Y89.71 E0.73025
G1 X110.92 Y89.65 E0.73346
G1 X111.65 Y89.42 E0.74753
G1 X111.78 Y89.38 E0.74996
G1 X112.39 Y89.24 E0.76147
G1 X112.56 Y89.20 E0.76468
G1 X114.06 Y89.00 E0.79237
G1 X114.32 Y88.98 E0.79712
G1 X115.06 Y88.99 E0.81070
G1 X115.28 Y89.01 E0.81466
G1 X116.05 Y89.11 E0.82890
G1 X116.35 Y89.18 E0.83454
G1 X117.21 Y89.44 E0.85095
G1 X117.45 Y89.53 E0.85563
G1 X118.23 Y89.90 E0.87138
G1 X118.42 Y90.01 E0.87549
G1 X119.42 Y90.65 E0.89723
G1 X119.72 Y90.89 E0.90418
G1 X120.44 Y91.60 E0.92253
G1 X120.68 Y91.89 E0.92957
G1 X120.89 Y92.23 E0.93684
G1 X121.82 Y92.23 E0.95383
G1 X122.05 Y92.24 E0.95788
G1 X122.82 Y92.34 E0.97210
G1 X123.04 Y92.38 E0.97629
G1 X123.79 Y92.58 E0.99052
G1 X124.01 Y92.65 E0.99460
G1 X124.73 Y92.93 E1.00882
G1 X124.94 Y93.03 E1.01300
G1 X125.62 Y93.40 E1.02725
G1 X125.81 Y93.53 E1.03141
G1 X126.44 Y93.98 E1.04565
G1 X126.61 Y94.13 E1.04977
G1 X127.18 Y94.66 E1.06402
G1 X127.34 Y94.83 E1.06818
G1 X127.83 Y95.43 E1.08246
G1 X127.97 Y95.61 E1.08660
G1 X128.38 Y96.27 E1.10083
G1 X128.49 Y96.46 E1.10491
G1 X128.82 Y97.17 E1.11917
G1 X128.91 Y97.38 E1.12337
G1 X129.15 Y98.12 E1.13762
G1 X129.21 Y98.34 E1.14171
G1 X129.35 Y99.10 E1.15593
G1 X129.38 Y99.33 E1.16006
G1 X129.43 Y100.11 E1.17444
G1 X129.43 Y100.35 E1.17883
G1 X129.37 Y101.16 E1.19368
G1 X129.34 Y101.38 E1.19779
G1 X129.19 Y102.15 E1.21202
G1 X129.13 Y102.36 E1.21612
G1 X128.89 Y103.10 E1.23036
G1 X128.81 Y103.32 E1.23460
G1 X128.47 Y104.02 E1.24878
G1 X128.37 Y104.20 E1.25267
G1 X127.96 Y104.84 E1.26640
G1 X127.82 Y105.03 E1.27075
G1 X127.30 Y105.65 E1.28558
G1 X127.15 Y105.81 E1.28969
G1 X126.58 Y106.34 E1.30394
G1 X126.40 Y106.48 E1.30808
G1 X125.77 Y106.94 E1.32233
G1 X125.58 Y107.06 E1.32646
G1 X124.89 Y107.43 E1.34073
G1 X124.68 Y107.53 E1.34495
G1 X123.96 Y107.81 E1.35905
G1 X123.77 Y107.87 E1.36284
G1 X123.42 Y107.96 E1.36945
G1 X123.29 Y108.32 E1.37643
G1 X122.91 Y108.97 E1.39024
G1 X122.77 Y109.12 E1.39397
G1 X122.52 Y109.78 E1.40678
G1 X120.58 Y111.06 E1.44926
G1 X118.41 Y110.97 E1.48902
G1 X117.45 Y110.65 E1.50760
G1 X116.42 Y109.95 E1.53040
G1 X115.93 Y109.45 E1.54312
G1 X115.47 Y108.76 E1.55832
G1 X115.34 Y108.54 E1.56297
G1 X115.19 Y108.22 E1.56939
G1 X105.40 Y108.22 E1.74857
G1 X105.32 Y108.25 E1.75011
G1 X104.86 Y108.41 E1.75903
G1 X104.55 Y108.48 E1.76480
G1 X103.33 Y108.67 E1.78732
G1 X103.07 Y108.69 E1.79211
G1 X102.55 Y108.69 E1.80164
G1 X102.47 Y108.69 E1.80317
G1 X101.73 Y108.66 E1.81672
G1 X101.55 Y108.64 E1.82001
G1 X100.83 Y108.54 E1.83328
G1 X100.66 Y108.51 E1.83648
G1 X99.92 Y108.33 E1.85049
G1 X99.76 Y108.28 E1.85342
G1 X99.58 Y108.22 E1.85684
G1 X95.98 Y108.22 E1.92270
G1 X95.48 Y108.72 E1.93570
G1 X95.35 Y108.83 E1.93866
G1 X94.91 Y109.19 E1.94910
G1 X94.73 Y109.32 E1.95325
G1 X93.84 Y109.87 E1.97235
G1 X93.55 Y110.02 E1.97840
G1 X92.11 Y110.58 E2.00662
G1 X91.81 Y110.67 E2.01229
G1 X90.78 Y110.89 E2.03155
G1 X90.46 Y110.92 E2.03755
G1 X89.04 Y110.95 E2.06340
G1 X88.79 Y110.94 E2.06805
G1 X87.51 Y110.78 E2.09166
G1 X87.25 Y110.73 E2.09647
G1 X86.18 Y110.44 E2.11675
G1 X85.93 Y110.34 E2.12164
G1 X84.72 Y109.81 E2.14580
G1 X84.52 Y109.71 E2.14990
G1 X83.45 Y109.07 E2.17274
G1 X83.23 Y108.91 E2.17760
G1 X82.39 Y108.22 E2.19765
G1 X78.14 Y108.21 E2.27529
G1 X77.91 Y108.19 E2.27954
G1 X77.14 Y108.09 E2.29388
G1 X76.91 Y108.05 E2.29811
G1 X76.16 Y107.84 E2.31236
G1 X75.95 Y107.78 E2.31637
G1 X75.23 Y107.49 E2.33058
G1 X75.02 Y107.39 E2.33478
G1 X74.34 Y107.01 E2.34902
G1 X74.15 Y106.89 E2.35314
G1 X73.53 Y106.43 E2.36728
G1 X73.36 Y106.29 E2.37126
G1 X72.81 Y105.77 E2.38504
G1 X72.65 Y105.60 E2.38939
G1 X72.14 Y104.97 E2.40424
G1 X72.00 Y104.79 E2.40839
G1 X71.60 Y104.13 E2.42248
G1 X71.50 Y103.95 E2.42629
G1 X71.17 Y103.27 E2.44006
G1 X71.08 Y103.04 E2.44451
G1 X70.84 Y102.28 E2.45926
G1 X70.79 Y102.07 E2.46315
G1 X70.65 Y101.34 E2.47677
G1 X70.62 Y101.11 E2.48092
G1 X70.57 Y100.33 E2.49518
G1 X70.57 Y100.11 E2.49937
G1 X70.62 Y99.33 E2.51365
G1 X70.65 Y99.10 E2.51778
G1 X70.80 Y98.34 E2.53201
G1 X70.85 Y98.12 E2.53609
G1 X71.09 Y97.38 E2.55034
G1 X71.17 Y97.17 E2.55454
G1 X71.51 Y96.46 E2.56880
G1 X71.62 Y96.27 E2.57288
G1 X72.03 Y95.61 E2.58711
G1 X72.17 Y95.43 E2.59125
G1 X72.66 Y94.83 E2.60553
G1 X72.82 Y94.66 E2.60969
G1 X73.39 Y94.13 E2.62394
G1 X73.56 Y93.98 E2.62806
G0 F3600 X73.81 Y94.30
G1 F1200 X74.41 Y93.86 E2.64184
G1 X74.58 Y93.75 E2.64554
G1 X75.25 Y93.39 E2.65934
G1 X75.43 Y93.30 E2.66303
G1 X76.13 Y93.02 E2.67682
G1 X76.32 Y92.96 E2.68044
G1 X77.05 Y92.77 E2.69422
G1 X77.25 Y92.73 E2.69794
G1 X77.99 Y92.64 E2.71170
G1 X78.19 Y92.63 E2.71531
G1 X80.35 Y92.62 E2.75486
G1 X80.72 Y92.24 E2.76459
G1 X81.66 Y91.65 E2.78493
G1 X82.39 Y91.40 E2.79897
G1 X83.25 Y91.33 E2.81487
G1 X83.62 Y91.34 E2.82157
G1 X84.06 Y91.41 E2.82978
G1 X86.05 Y91.64 E2.86643
G1 X86.30 Y91.69 E2.87108
G1 X87.02 Y91.90 E2.88480
G1 X87.43 Y92.08 E2.89299
G1 X87.98 Y92.42 E2.90484
G1 X88.31 Y92.38 E2.91097
G1 X88.60 Y92.36 E2.91611
G1 X88.96 Y92.38 E2.92272
G1 X89.35 Y92.25 E2.93024
G1 X90.33 Y92.13 E2.94841
G1 X90.97 Y92.18 E2.96013
G1 X91.99 Y92.47 E2.97945
G1 X92.24 Y92.62 E2.98480
G1 X96.43 Y92.62 E3.06156
G1 X96.97 Y92.22 E3.07374
G1 X97.11 Y92.12 E3.07703
G1 X97.67 Y91.80 E3.08882
G1 X97.80 Y91.73 E3.09150
G1 X98.40 Y91.45 E3.10352
G1 X98.54 Y91.39 E3.10639
G1 X99.18 Y91.17 E3.11871
G1 X99.30 Y91.13 E3.12103
G1 X99.85 Y90.98 E3.13144
G1 X100.09 Y90.94 E3.13590
G1 X101.40 Y90.80 E3.16012
G1 X101.74 Y90.80 E3.16636
G1 X103.11 Y90.94 E3.19154
G1 X103.32 Y90.97 E3.19538
G1 X103.91 Y91.12 E3.20650
G1 X104.03 Y91.15 E3.20884
G1 X104.70 Y91.37 E3.22158
G1 X104.84 Y91.42 E3.22450
G1 X105.61 Y91.77 E3.23988
G1 X105.75 Y91.83 E3.24272
G1 X106.54 Y92.28 E3.25934
G1 X106.69 Y92.37 E3.26244
G1 X107.04 Y92.62 E3.27032
G1 X107.53 Y92.62 E3.27936
G1 X108.06 Y91.96 E3.29476
G1 X108.24 Y91.77 E3.29969
G1 X108.85 Y91.22 E3.31459
G1 X109.08 Y91.05 E3.31987
G1 X110.04 Y90.47 E3.34035
G1 X110.24 Y90.36 E3.34459
G1 X110.90 Y90.08 E3.35768
G1 X111.05 Y90.03 E3.36053
G1 X111.76 Y89.80 E3.37427
G1 X111.88 Y89.77 E3.37645
G1 X112.47 Y89.63 E3.38765
G1 X112.63 Y89.60 E3.39050
G1 X114.10 Y89.40 E3.41773
G1 X114.33 Y89.39 E3.42198
G1 X115.05 Y89.39 E3.43506
G1 X115.24 Y89.41 E3.43858
G1 X115.98 Y89.50 E3.45229
G1 X116.25 Y89.56 E3.45731
G1 X117.08 Y89.82 E3.47316
G1 X117.29 Y89.90 E3.47730
G1 X118.04 Y90.26 E3.49256
G1 X118.22 Y90.36 E3.49622
G1 X119.19 Y90.98 E3.51735
G1 X119.45 Y91.19 E3.52352
G1 X120.14 Y91.86 E3.54110
G1 X120.35 Y92.13 E3.54735
G1 X120.68 Y92.63 E3.55818
G1 X121.81 Y92.63 E3.57890
G1 X122.01 Y92.64 E3.58250
G1 X122.75 Y92.73 E3.59625
G1 X122.95 Y92.77 E3.59997
G1 X123.68 Y92.96 E3.61375
G1 X123.87 Y93.02 E3.61737
G1 X124.57 Y93.30 E3.63116
G1 X124.75 Y93.39 E3.63486
G1 X125.42 Y93.75 E3.64865
G1 X125.59 Y93.86 E3.65235
G1 X126.19 Y94.30 E3.66613
G1 X126.35 Y94.43 E3.66978
G1 X126.90 Y94.94 E3.68357
G1 X127.04 Y95.09 E3.68729
G1 X127.52 Y95.67 E3.70110
G1 X127.64 Y95.84 E3.70478
G1 X128.04 Y96.47 E3.71854
G1 X128.13 Y96.64 E3.72217
G1 X128.46 Y97.33 E3.73596
G1 X128.53 Y97.52 E3.73970
G1 X128.76 Y98.23 E3.75349
G1 X128.81 Y98.43 E3.75712
G1 X128.96 Y99.17 E3.77088
G1 X128.98 Y99.37 E3.77459
G1 X129.03 Y100.12 E3.78848
G1 X129.03 Y100.34 E3.79236
G1 X128.97 Y101.12 E3.80674
G1 X128.95 Y101.32 E3.81043
G1 X128.80 Y102.06 E3.82419
G1 X128.75 Y102.25 E3.82780
G1 X128.51 Y102.97 E3.84159
G1 X128.44 Y103.16 E3.84538
G1 X128.11 Y103.83 E3.85909
G1 X128.02 Y104.00 E3.86257
G1 X127.63 Y104.61 E3.87584
G1 X127.51 Y104.78 E3.87969
G1 X127.00 Y105.38 E3.89404
G1 X126.87 Y105.53 E3.89770
G1 X126.31 Y106.04 E3.91148
G1 X126.16 Y106.17 E3.91517
G1 X125.55 Y106.61 E3.92897
G1 X125.38 Y106.71 E3.93264
G1 X124.71 Y107.07 E3.94645
G1 X124.53 Y107.16 E3.95021
G1 X123.83 Y107.43 E3.96386
G1 X123.65 Y107.48 E3.96722
G1 X123.11 Y107.63 E3.97756
G1 X122.93 Y108.15 E3.98773
G1 X122.58 Y108.73 E3.99999
G1 X122.42 Y108.91 E4.00439
G1 X122.19 Y109.51 E4.01626
G1 X120.47 Y110.65 E4.05400
G1 X118.48 Y110.57 E4.09038
G1 X117.62 Y110.29 E4.10689
G1 X116.67 Y109.64 E4.12796
G1 X116.24 Y109.20 E4.13927
G1 X115.81 Y108.55 E4.15350
G1 X115.70 Y108.35 E4.15763
G1 X115.45 Y107.83 E4.16813
G1 X115.45 Y107.82 E4.16841
G1 X105.32 Y107.82 E4.35360
G1 X105.26 Y107.85 E4.35485
G1 X105.19 Y107.87 E4.35625
G1 X104.75 Y108.02 E4.36477
G1 X104.47 Y108.09 E4.36989
G1 X103.29 Y108.27 E4.39184
G1 X103.06 Y108.29 E4.39609
G1 X102.55 Y108.29 E4.40528
G1 X102.48 Y108.29 E4.40663
G1 X101.75 Y108.26 E4.41991
G1 X101.59 Y108.24 E4.42284
G1 X100.90 Y108.14 E4.43574
G1 X100.74 Y108.12 E4.43859
G1 X100.02 Y107.94 E4.45225
G1 X99.88 Y107.90 E4.45488
G1 X99.65 Y107.82 E4.45937
G1 X95.82 Y107.82 E4.52938
G1 X95.20 Y108.43 E4.54521
G1 X95.09 Y108.52 E4.54783
G1 X94.67 Y108.87 E4.55786
G1 X94.51 Y108.98 E4.56155
G1 X93.65 Y109.52 E4.58010
G1 X93.38 Y109.66 E4.58549
G1 X91.98 Y110.21 E4.61305
G1 X91.72 Y110.28 E4.61809
G1 X90.72 Y110.49 E4.63669
G1 X90.43 Y110.52 E4.64202
G1 X89.05 Y110.55 E4.66729
G1 X88.82 Y110.54 E4.67143
G1 X87.57 Y110.38 E4.69450
G1 X87.34 Y110.34 E4.69879
G1 X86.30 Y110.05 E4.71854
G1 X86.08 Y109.97 E4.72287
G1 X84.89 Y109.45 E4.74652
G1 X84.72 Y109.36 E4.75017
G1 X83.67 Y108.73 E4.77250
G1 X83.48 Y108.60 E4.77682
G1 X82.55 Y107.84 E4.79871
G1 X82.53 Y107.82 E4.79920
G1 X78.16 Y107.81 E4.87925
G1 X77.95 Y107.80 E4.88301
G1 X77.20 Y107.70 E4.89688
G1 X77.00 Y107.66 E4.90065
G1 X76.27 Y107.46 E4.91443
G1 X76.09 Y107.40 E4.91800
G1 X75.39 Y107.12 E4.93175
G1 X75.20 Y107.03 E4.93549
G1 X74.55 Y106.67 E4.94928
G1 X74.38 Y106.56 E4.95292
G1 X73.78 Y106.11 E4.96662
G1 X73.63 Y105.99 E4.97015
G1 X73.09 Y105.49 E4.98348
G1 X72.95 Y105.34 E4.98735
G1 X72.45 Y104.73 E5.00172
G1 X72.34 Y104.56 E5.00541
G1 X71.94 Y103.93 E5.01907
G1 X71.85 Y103.77 E5.02246
G1 X71.54 Y103.11 E5.03574
G1 X71.46 Y102.91 E5.03971
G1 X71.23 Y102.17 E5.05401
G1 X71.18 Y101.98 E5.05745
G1 X71.04 Y101.28 E5.07063
G1 X71.02 Y101.08 E5.07432
G1 X70.97 Y100.32 E5.08812
G1 X70.97 Y100.12 E5.09182
G1 X71.02 Y99.37 E5.10564
G1 X71.05 Y99.17 E5.10935
G1 X71.19 Y98.43 E5.12311
G1 X71.24 Y98.23 E5.12674
G1 X71.47 Y97.52 E5.14053
G1 X71.54 Y97.33 E5.14426
G1 X71.86 Y96.64 E5.15806
G1 X71.96 Y96.47 E5.16169
G1 X72.36 Y95.84 E5.17545
G1 X72.48 Y95.67 E5.17913
G1 X72.96 Y95.09 E5.19294
G1 X73.10 Y94.94 E5.19665
G1 X73.65 Y94.43 E5.21045
G1 X73.81 Y94.30 E5.21410
G0 F3600 X76.08 Y97.22
G0 X76.08 Y97.22
G0 X75.89 Y96.99
;TYPE:WALL-OUTER
G1 F1200 X76.33 Y96.67 E5.22390
G1 X76.78 Y96.42 E5.23339
G1 X77.27 Y96.23 E5.24299
G1 X77.79 Y96.09 E5.25283
G1 X78.31 Y96.03 E5.26229
G1 X82.31 Y96.02 E5.33547
G1 X82.42 Y95.89 E5.33868
G1 X82.41 Y95.75 E5.34132
G1 X82.45 Y95.65 E5.34331
G1 X82.58 Y95.50 E5.34684
G1 X82.92 Y94.87 E5.35994
G1 X83.10 Y94.76 E5.36383
G1 X83.33 Y94.74 E5.36803
G1 X83.62 Y94.78 E5.37345
G1 X85.52 Y95.00 E5.40839
G1 X85.85 Y95.10 E5.41478
G1 X86.17 Y95.30 E5.42156
G1 X86.38 Y95.63 E5.42880
G1 X86.41 Y95.92 E5.43414
G1 X86.53 Y96.02 E5.43697
G1 X87.07 Y96.02 E5.44685
G1 X87.38 Y95.93 E5.45276
G1 X88.60 Y95.77 E5.47531
G1 X89.77 Y95.82 E5.49670
G1 X89.87 Y95.76 E5.49879
G1 X89.90 Y95.71 E5.49990
G1 X90.12 Y95.58 E5.50466
G1 X90.38 Y95.55 E5.50946
G1 X90.58 Y95.60 E5.51327
G1 X90.84 Y95.88 E5.52017
G1 X90.89 Y95.91 E5.52116
G1 X91.31 Y96.02 E5.52916
G1 X97.74 Y96.02 E5.64684
G1 X97.82 Y95.99 E5.64839
G1 X98.13 Y95.65 E5.65671
G1 X98.50 Y95.32 E5.66585
G1 X98.92 Y95.01 E5.67542
G1 X99.32 Y94.77 E5.68391
G1 X99.75 Y94.57 E5.69262
G1 X100.25 Y94.39 E5.70227
G1 X100.59 Y94.30 E5.70868
G1 X101.58 Y94.20 E5.72692
G1 X102.64 Y94.31 E5.74647
G1 X103.04 Y94.40 E5.75398
G1 X103.55 Y94.57 E5.76380
G1 X104.17 Y94.84 E5.77606
G1 X104.79 Y95.19 E5.78919
G1 X105.44 Y95.66 E5.80374
G1 X105.84 Y96.00 E5.81336
G1 X105.91 Y96.02 E5.81467
G1 X109.67 Y96.02 E5.88356
G1 X109.78 Y95.94 E5.88605
G1 X109.96 Y95.27 E5.89880
G1 X110.25 Y94.67 E5.91094
G1 X110.62 Y94.20 E5.92182
G1 X110.99 Y93.87 E5.93093
G1 X111.70 Y93.44 E5.94607
G1 X112.16 Y93.24 E5.95520
G1 X112.72 Y93.06 E5.96606
G1 X113.18 Y92.96 E5.97458
G1 X114.43 Y92.79 E5.99771
G1 X114.91 Y92.79 E6.00651
G1 X115.39 Y92.86 E6.01533
G1 X115.94 Y93.03 E6.02598
G1 X116.49 Y93.29 E6.03699
G1 X117.20 Y93.74 E6.05244
G1 X117.61 Y94.15 E6.06306
G1 X117.99 Y94.72 E6.07557
G1 X118.19 Y95.24 E6.08586
G1 X118.27 Y95.92 E6.09829
G1 X118.39 Y96.02 E6.10107
G1 X121.70 Y96.03 E6.16163
G1 X122.21 Y96.09 E6.17108
G1 X122.73 Y96.23 E6.18093
G1 X123.22 Y96.42 E6.19053
G1 X123.67 Y96.67 E6.20002
G1 X124.11 Y96.99 E6.20982
G1 X124.49 Y97.35 E6.21952
G1 X124.82 Y97.75 E6.22902
G1 X125.11 Y98.20 E6.23875
G1 X125.33 Y98.68 E6.24842
G1 X125.50 Y99.18 E6.25805
G1 X125.59 Y99.69 E6.26753
G1 X125.63 Y100.22 E6.27732
G1 X125.59 Y100.78 E6.28755
G1 X125.49 Y101.29 E6.29706
G1 X125.32 Y101.79 E6.30678
G1 X125.09 Y102.27 E6.31637
G1 X124.82 Y102.69 E6.32563
G1 X124.47 Y103.11 E6.33557
G1 X124.09 Y103.47 E6.34528
G1 X123.65 Y103.78 E6.35507
G1 X123.20 Y104.03 E6.36455
G1 X122.70 Y104.22 E6.37427
G1 X122.21 Y104.35 E6.38355
G1 X121.70 Y104.41 E6.39301
G1 X119.49 Y104.42 E6.43340
G1 X119.37 Y104.57 E6.43691
G1 X119.88 Y106.55 E6.47433
G1 X119.83 Y106.70 E6.47711
G1 X119.49 Y107.07 E6.48637
G1 X119.47 Y107.10 E6.48708
G1 X119.43 Y107.21 E6.48917
G1 X119.12 Y107.19 E6.49473
G1 X118.88 Y107.03 E6.50009
G1 X118.71 Y106.78 E6.50569
G1 X118.56 Y106.45 E6.51233
G1 X117.86 Y104.49 E6.55026
G1 X117.76 Y104.42 E6.55257
G1 X104.66 Y104.43 E6.79212
G1 X103.81 Y104.75 E6.80880
G1 X102.91 Y104.89 E6.82556
G1 X102.58 Y104.89 E6.83149
G1 X101.98 Y104.86 E6.84246
