;Generated with Cura_SteamEngine 13.11.2
M109 T0 S230.000000
T0
;Sliced ?filename? at: Sun 16-02-2014 10:57:08
;Basic settings: Layer height: 0.2 Walls: 0.4 Fill: 30
;Print time: #P_TIME#
;Filament used: #F_AMNT#m #F_WGHT#g
;Filament cost: #F_COST#
G21        ;metric values
G90        ;absolute positioning
M107       ;start with the fan off
G28 X0 Y0  ;move X/Y to min endstops
G28 Z0     ;move Z to min endstops
G92 X0 Y0 Z0 E0         ;reset software position to front/left/z=0.0
G1 Z15.0 F?max_z_speed? ;move the platform down 15mm
G92 E0                  ;zero the extruded length
G1 F200 E10              ;extrude 3mm of feed stock
;E10 ipv E3 voor kop voldoende te vullen
G92 E0                  ;zero the extruded length again
;go to the middle of the platform (disabled, as there is no need to go to the center)
;G1 X?machine_center_x? Y?machine_center_y? F9000
G1 F9000

;Layer count: 25
;LAYER:0
M107
G0 F3600 X63.70 Y93.90 Z0.30
;TYPE:SKIRT
G1 F2400 E0.00000
G1 F1200 X63.87 Y93.79 E0.00370
G1 X64.53 Y93.43 E0.01750
G1 X64.72 Y93.34 E0.02119
G1 X65.42 Y93.06 E0.03498
G1 X65.60 Y93.00 E0.03860
G1 X66.33 Y92.81 E0.05238
G1 X66.53 Y92.78 E0.05610
G1 X67.26 Y92.69 E0.06947
G1 X67.41 Y92.67 E0.07227
G1 X67.79 Y92.66 E0.07917
G1 X67.83 Y92.66 E0.08003
G1 X68.39 Y92.66 E0.09010
G1 X68.52 Y92.48 E0.09424
G1 X69.51 Y91.63 E0.11815
G1 X70.63 Y91.23 E0.13998
G1 X72.17 Y91.27 E0.16817
G1 X72.88 Y91.46 E0.18142
G1 X73.47 Y91.77 E0.19372
G1 X73.52 Y91.75 E0.19465
G1 X74.64 Y91.60 E0.21538
G1 X75.27 Y91.64 E0.22682
G1 X76.22 Y91.90 E0.24493
G1 X76.92 Y92.29 E0.25957
G1 X77.22 Y92.58 E0.26719
G1 X77.39 Y92.42 E0.27154
G1 X77.95 Y92.07 E0.28357
G1 X78.49 Y91.87 E0.29413
G1 X78.78 Y91.75 E0.29984
G1 X79.48 Y91.63 E0.31288
G1 X80.58 Y91.68 E0.33286
G1 X81.39 Y91.95 E0.34860
G1 X81.44 Y91.98 E0.34966
G1 X81.72 Y92.05 E0.35495
G1 X82.24 Y92.28 E0.36536
G1 X82.66 Y91.80 E0.37708
G1 X83.78 Y91.26 E0.39990
G1 X84.24 Y91.12 E0.40855
G1 X85.01 Y91.00 E0.42288
G1 X85.33 Y90.98 E0.42872
G1 X86.10 Y91.02 E0.44283
G1 X86.74 Y91.19 E0.45500
G1 X87.16 Y91.39 E0.46358
G1 X87.67 Y91.10 E0.47432
G1 X88.59 Y90.78 E0.49215
G1 X89.30 Y90.70 E0.50514
G1 X90.35 Y90.82 E0.52445
G1 X90.97 Y91.06 E0.53675
G1 X91.35 Y90.75 E0.54560
G1 X91.82 Y90.50 E0.55544
G1 X92.81 Y90.15 E0.57454
G1 X93.14 Y90.07 E0.58087
G1 X94.19 Y89.94 E0.60008
G1 X94.42 Y89.93 E0.60429
G1 X95.46 Y89.95 E0.62332
G1 X95.70 Y89.97 E0.62785
G1 X96.78 Y90.17 E0.64795
G1 X97.27 Y90.33 E0.65725
G1 X97.33 Y90.37 E0.65861
G1 X98.54 Y89.45 E0.68637
G1 X100.03 Y89.26 E0.71387
G1 X100.68 Y89.31 E0.72582
G1 X101.59 Y89.57 E0.74314
G1 X101.92 Y89.70 E0.74962
G1 X102.69 Y90.12 E0.76567
G1 X103.06 Y90.39 E0.77403
G1 X103.23 Y90.56 E0.77844
G1 X103.77 Y89.78 E0.79571
G1 X104.51 Y89.19 E0.81319
G1 X105.93 Y88.63 E0.84112
G1 X106.42 Y88.52 E0.85018
G1 X107.70 Y88.43 E0.87374
G1 X108.08 Y88.45 E0.88068
G1 X108.43 Y88.51 E0.88723
G1 X108.90 Y88.37 E0.89622
G1 X109.36 Y88.31 E0.90468
G1 X110.31 Y88.32 E0.92195
G1 X110.92 Y88.45 E0.93346
G1 X111.09 Y88.52 E0.93687
G1 X111.42 Y88.27 E0.94435
G1 X112.09 Y87.96 E0.95790
G1 X113.65 Y87.65 E0.98704
G1 X114.40 Y87.79 E1.00088
G1 X114.63 Y87.74 E1.00527
G1 X114.94 Y87.70 E1.01102
G1 X116.23 Y87.68 E1.03464
G1 X117.10 Y87.91 E1.05103
G1 X118.39 Y88.69 E1.07868
G1 X118.77 Y89.00 E1.08749
G1 X119.68 Y90.03 E1.11264
G1 X119.88 Y90.30 E1.11875
G1 X120.55 Y91.48 E1.14360
G1 X120.69 Y91.80 E1.15002
G1 X120.96 Y92.66 E1.16661
G1 X132.52 Y92.67 E1.37806
G1 X132.72 Y92.68 E1.38171
G1 X133.47 Y92.78 E1.39552
G1 X133.67 Y92.81 E1.39924
G1 X134.40 Y93.00 E1.41302
G1 X134.59 Y93.06 E1.41664
G1 X135.29 Y93.34 E1.43043
G1 X135.47 Y93.43 E1.43412
G1 X136.13 Y93.79 E1.44792
G1 X136.30 Y93.90 E1.45162
G1 X136.91 Y94.34 E1.46540
G1 X137.06 Y94.47 E1.46905
G1 X137.61 Y94.98 E1.48284
G1 X137.75 Y95.13 E1.48656
G1 X138.23 Y95.71 E1.50037
G1 X138.35 Y95.88 E1.50405
G1 X138.75 Y96.51 E1.51783
G1 X138.85 Y96.69 E1.52152
G1 X139.17 Y97.37 E1.53528
G1 X139.25 Y97.56 E1.53893
G1 X139.48 Y98.27 E1.55268
G1 X139.53 Y98.47 E1.55637
G1 X139.67 Y99.21 E1.57019
G1 X139.70 Y99.41 E1.57391
G1 X139.74 Y100.17 E1.58779
G1 X139.74 Y100.37 E1.59157
G1 X139.69 Y101.16 E1.60591
G1 X139.66 Y101.36 E1.60966
G1 X139.52 Y102.10 E1.62347
G1 X139.47 Y102.29 E1.62714
G1 X139.23 Y103.01 E1.64092
G1 X139.15 Y103.19 E1.64459
G1 X138.83 Y103.87 E1.65828
G1 X138.74 Y104.04 E1.66179
G1 X138.35 Y104.65 E1.67510
G1 X138.22 Y104.82 E1.67895
G1 X137.72 Y105.42 E1.69330
G1 X137.58 Y105.57 E1.69696
G1 X137.03 Y106.08 E1.71075
G1 X136.87 Y106.21 E1.71444
G1 X136.26 Y106.65 E1.72823
G1 X136.09 Y106.75 E1.73190
G1 X135.43 Y107.11 E1.74571
G1 X135.24 Y107.20 E1.74947
G1 X134.54 Y107.47 E1.76312
G1 X134.37 Y107.53 E1.76648
G1 X133.67 Y107.71 E1.77967
G1 X133.47 Y107.75 E1.78344
G1 X132.97 Y107.81 E1.79267
G1 X133.07 Y108.14 E1.79901
G1 X132.78 Y109.86 E1.83101
G1 X132.35 Y110.72 E1.84853
G1 X131.55 Y111.57 E1.86995
G1 X130.74 Y112.03 E1.88692
G1 X129.86 Y112.24 E1.90354
G1 X129.58 Y112.28 E1.90868
G1 X129.03 Y112.32 E1.91878
G1 X128.65 Y112.29 E1.92575
G1 X128.07 Y112.19 E1.93647
G1 X127.86 Y112.14 E1.94049
G1 X127.44 Y112.00 E1.94853
G1 X126.95 Y111.74 E1.95875
G1 X125.74 Y110.79 E1.98681
G1 X125.56 Y110.96 E1.99133
G1 X125.12 Y111.24 E2.00091
G1 X124.92 Y111.32 E2.00473
G1 X124.47 Y111.63 E2.01483
G1 X123.95 Y111.87 E2.02524
G1 X123.12 Y112.08 E2.04091
G1 X122.50 Y112.11 E2.05223
G1 X121.17 Y111.93 E2.07690
G1 X120.91 Y111.88 E2.08171
G1 X119.77 Y111.52 E2.10364
G1 X119.48 Y111.40 E2.10932
G1 X118.40 Y110.82 E2.13180
G1 X118.06 Y110.57 E2.13949
G1 X117.61 Y110.15 E2.15074
G1 X117.08 Y110.45 E2.16191
G1 X116.20 Y110.66 E2.17852
G1 X115.93 Y110.70 E2.18344
G1 X115.38 Y110.74 E2.19354
G1 X114.99 Y110.71 E2.20075
G1 X114.41 Y110.61 E2.21154
G1 X114.20 Y110.56 E2.21544
G1 X113.78 Y110.42 E2.22343
G1 X113.29 Y110.16 E2.23363
G1 X112.04 Y109.18 E2.26275
G1 X111.59 Y108.43 E2.27866
G1 X110.78 Y109.44 E2.30234
G1 X109.85 Y110.01 E2.32232
G1 X108.61 Y110.28 E2.34552
G1 X108.07 Y110.31 E2.35539
G1 X107.04 Y110.18 E2.37439
G1 X106.58 Y110.05 E2.38316
G1 X105.55 Y109.59 E2.40376
G1 X104.96 Y109.14 E2.41743
G1 X104.70 Y108.83 E2.42483
G1 X104.38 Y109.01 E2.43156
G1 X104.02 Y109.16 E2.43872
G1 X103.14 Y109.41 E2.45554
G1 X102.65 Y109.47 E2.46455
G1 X101.41 Y109.43 E2.48714
G1 X101.08 Y109.39 E2.49336
G1 X100.09 Y109.14 E2.51186
G1 X99.80 Y109.03 E2.51767
G1 X99.00 Y108.66 E2.53383
G1 X98.82 Y108.56 E2.53759
G1 X98.14 Y108.12 E2.55235
G1 X97.94 Y107.97 E2.55700
G1 X97.82 Y107.86 E2.55990
G1 X67.45 Y107.85 E3.11546
G1 X67.24 Y107.84 E3.11929
G1 X66.49 Y107.74 E3.13318
G1 X66.28 Y107.70 E3.13695
G1 X65.56 Y107.50 E3.15073
G1 X65.37 Y107.44 E3.15429
G1 X64.67 Y107.16 E3.16805
G1 X64.49 Y107.07 E3.17179
G1 X63.83 Y106.71 E3.18557
G1 X63.66 Y106.60 E3.18922
G1 X63.06 Y106.16 E3.20292
G1 X62.91 Y106.03 E3.20645
G1 X62.38 Y105.53 E3.21978
G1 X62.24 Y105.38 E3.22365
G1 X61.74 Y104.77 E3.23802
G1 X61.62 Y104.61 E3.24170
G1 X61.23 Y103.97 E3.25536
G1 X61.14 Y103.81 E3.25876
G1 X60.83 Y103.15 E3.27204
G1 X60.75 Y102.95 E3.27601
G1 X60.51 Y102.21 E3.29031
G1 X60.47 Y102.02 E3.29374
G1 X60.33 Y101.32 E3.30693
G1 X60.30 Y101.12 E3.31062
G1 X60.26 Y100.36 E3.32442
G1 X60.26 Y100.16 E3.32812
G1 X60.30 Y99.41 E3.34194
G1 X60.33 Y99.21 E3.34565
G1 X60.47 Y98.47 E3.35941
G1 X60.52 Y98.28 E3.36304
G1 X60.75 Y97.56 E3.37682
G1 X60.83 Y97.37 E3.38056
G1 X61.15 Y96.69 E3.39436
G1 X61.25 Y96.51 E3.39798
G1 X61.65 Y95.88 E3.41174
G1 X61.77 Y95.71 E3.41542
G1 X62.25 Y95.13 E3.42924
G1 X62.39 Y94.98 E3.43295
G1 X62.94 Y94.47 E3.44675
G1 X63.09 Y94.34 E3.45040
G1 X63.70 Y93.90 E3.46418
G0 F3600 X65.76 Y96.97
G0 X65.77 Y96.97
G0 X65.61 Y96.71
;TYPE:WALL-OUTER
G1 F1200 X66.07 Y96.46 E3.47367
G1 X66.56 Y96.27 E3.48327
G1 X67.08 Y96.14 E3.49311
G1 X67.59 Y96.07 E3.50259
G1 X67.86 Y96.06 E3.50757
G1 X70.76 Y96.06 E3.56058
G1 X71.03 Y96.06 E3.56541
G1 X71.14 Y95.87 E3.56944
G1 X71.08 Y95.73 E3.57225
G1 X71.01 Y95.52 E3.57637
G1 X70.98 Y95.25 E3.58135
G1 X70.99 Y94.97 E3.58644
G1 X71.07 Y94.77 E3.59046
G1 X71.21 Y94.65 E3.59380
G1 X71.67 Y94.66 E3.60222
G1 X72.10 Y94.89 E3.61111
G1 X72.38 Y95.26 E3.61962
G1 X72.62 Y95.80 E3.63041
G1 X72.75 Y95.86 E3.63317
G1 X72.81 Y95.84 E3.63431
G1 X72.97 Y95.87 E3.63725
G1 X73.08 Y95.97 E3.63992
G1 X73.10 Y96.01 E3.64076
G1 X73.19 Y96.06 E3.64267
G1 X73.72 Y96.06 E3.65223
G1 X73.81 Y96.00 E3.65433
G1 X73.93 Y95.78 E3.65892
G1 X74.23 Y95.32 E3.66889
G1 X74.52 Y95.05 E3.67628
G1 X74.72 Y95.02 E3.67997
G1 X74.90 Y95.07 E3.68342
G1 X74.96 Y95.12 E3.68483
G1 X74.95 Y95.27 E3.68749
G1 X74.98 Y95.35 E3.68906
G1 X75.09 Y95.46 E3.69201
G1 X75.15 Y95.49 E3.69322
G1 X75.28 Y95.51 E3.69566
G1 X75.32 Y95.53 E3.69637
G1 X75.34 Y95.60 E3.69767
G1 X75.26 Y95.91 E3.70354
G1 X75.38 Y96.06 E3.70714
G1 X78.94 Y96.06 E3.77230
G1 X79.03 Y96.01 E3.77427
G1 X79.20 Y95.73 E3.78016
G1 X79.21 Y95.66 E3.78152
G1 X79.20 Y95.60 E3.78260
G1 X79.28 Y95.31 E3.78801
G1 X79.47 Y95.13 E3.79283
G1 X79.72 Y95.04 E3.79759
G1 X79.92 Y95.05 E3.80142
G1 X80.24 Y95.26 E3.80835
G1 X80.29 Y95.28 E3.80937
G1 X80.64 Y95.29 E3.81561
G1 X80.75 Y95.34 E3.81796
G1 X80.90 Y95.55 E3.82263
G1 X81.07 Y95.99 E3.83132
G1 X81.17 Y96.06 E3.83359
G1 X85.09 Y96.06 E3.90519
G1 X85.21 Y95.89 E3.90902
G1 X85.00 Y95.34 E3.91970
G1 X84.77 Y94.66 E3.93294
G1 X84.81 Y94.54 E3.93518
G1 X85.02 Y94.44 E3.93939
G1 X85.35 Y94.39 E3.94561
G1 X85.57 Y94.40 E3.94955
G1 X85.91 Y94.57 E3.95661
G1 X86.14 Y94.83 E3.96290
G1 X86.72 Y96.00 E3.98685
G1 X86.82 Y96.06 E3.98894
G1 X87.42 Y96.06 E3.99988
G1 X87.53 Y95.95 E4.00280
G1 X87.57 Y95.62 E4.00887
G1 X87.65 Y95.49 E4.01167
G1 X87.78 Y95.42 E4.01433
G1 X87.93 Y95.41 E4.01719
G1 X88.11 Y95.47 E4.02052
G1 X88.37 Y95.72 E4.02713
G1 X88.53 Y96.01 E4.03313
G1 X88.62 Y96.06 E4.03510
G1 X89.17 Y96.06 E4.04501
G1 X89.28 Y95.89 E4.04885
G1 X88.89 Y94.86 E4.06899
G1 X88.86 Y94.55 E4.07464
G1 X88.95 Y94.35 E4.07872
G1 X89.12 Y94.20 E4.08289
G1 X89.32 Y94.13 E4.08685
G1 X89.52 Y94.15 E4.09044
G1 X89.68 Y94.27 E4.09415
G1 X89.77 Y94.39 E4.09704
G1 X89.90 Y94.44 E4.09943
G1 X90.06 Y94.38 E4.10254
G1 X90.10 Y94.38 E4.10330
G1 X90.17 Y94.44 E4.10508
G1 X90.36 Y94.89 E4.11399
G1 X90.71 Y95.98 E4.13497
G1 X90.82 Y96.06 E4.13737
G1 X92.72 Y96.06 E4.17216
G1 X92.84 Y95.88 E4.17611
G1 X92.75 Y95.69 E4.17991
G1 X92.58 Y95.06 E4.19196
G1 X92.58 Y94.46 E4.20292
G1 X92.78 Y93.97 E4.21262
G1 X93.24 Y93.60 E4.22329
G1 X93.75 Y93.42 E4.23328
G1 X94.48 Y93.33 E4.24663
G1 X95.25 Y93.35 E4.26070
G1 X95.91 Y93.47 E4.27303
G1 X96.28 Y93.66 E4.28061
G1 X96.33 Y93.88 E4.28476
G1 X96.28 Y93.99 E4.28690
G1 X96.14 Y94.05 E4.28968
G1 X96.09 Y94.10 E4.29096
G1 X96.00 Y94.29 E4.29484
G1 X95.71 Y94.45 E4.30088
G1 X95.31 Y94.42 E4.30818
G1 X94.87 Y94.32 E4.31648
G1 X94.41 Y94.31 E4.32485
G1 X94.35 Y94.33 E4.32605
G1 X94.11 Y94.50 E4.33143
G1 X93.94 Y94.76 E4.33716
G1 X94.05 Y94.97 E4.34154
G1 X94.60 Y94.98 E4.35157
G1 X95.07 Y95.02 E4.36019
G1 X95.69 Y95.11 E4.37168
G1 X96.22 Y95.34 E4.38229
G1 X96.58 Y95.61 E4.39054
G1 X96.86 Y96.02 E4.39945
G1 X96.94 Y96.06 E4.40127
G1 X100.39 Y96.06 E4.46440
G1 X100.51 Y95.89 E4.46829
G1 X99.54 Y93.43 E4.51658
G1 X99.50 Y93.19 E4.52114
G1 X99.53 Y93.15 E4.52196
G1 X99.67 Y93.09 E4.52473
G1 X99.70 Y93.07 E4.52555
G1 X99.86 Y92.89 E4.52986
G1 X99.94 Y92.70 E4.53351
G1 X100.11 Y92.68 E4.53674
G1 X100.47 Y92.78 E4.54363
G1 X100.84 Y92.98 E4.55140
G1 X101.06 Y93.20 E4.55697
G1 X101.22 Y93.51 E4.56336
G1 X102.22 Y95.99 E4.61234
G1 X102.33 Y96.06 E4.61459
G1 X107.42 Y96.06 E4.70787
G1 X107.52 Y95.79 E4.71319
G1 X106.97 Y95.38 E4.72566
G1 X106.49 Y94.85 E4.73867
G1 X106.18 Y94.27 E4.75085
G1 X105.99 Y93.65 E4.76260
G1 X105.91 Y93.06 E4.77350
G1 X105.93 Y92.64 E4.78112
G1 X106.26 Y92.15 E4.79201
G1 X106.92 Y91.89 E4.80500
G1 X107.72 Y91.84 E4.81961
G1 X108.38 Y91.95 E4.83184
G1 X108.61 Y92.05 E4.83652
G1 X108.86 Y92.31 E4.84296
G1 X109.10 Y92.23 E4.84767
G1 X109.13 Y91.92 E4.85334
G1 X109.28 Y91.80 E4.85689
G1 X109.59 Y91.71 E4.86279
G1 X109.93 Y91.72 E4.86884
G1 X110.15 Y91.81 E4.87321
G1 X110.25 Y92.01 E4.87740
G1 X110.85 Y94.53 E4.92483
G1 X110.96 Y95.22 E4.93762
G1 X110.94 Y95.46 E4.94189
G1 X110.88 Y95.65 E4.94551
G1 X110.72 Y95.83 E4.94993
G1 X110.83 Y96.06 E4.95463
G1 X114.08 Y96.06 E5.01411
G1 X114.20 Y95.88 E5.01810
G1 X113.90 Y95.22 E5.03139
G1 X113.31 Y93.71 E5.06089
G1 X112.84 Y92.28 E5.08847
G1 X112.74 Y91.80 E5.09751
G1 X112.86 Y91.45 E5.10420
G1 X113.17 Y91.21 E5.11132
G1 X113.64 Y91.12 E5.12013
G1 X114.02 Y91.25 E5.12754
G1 X114.21 Y91.39 E5.13173
G1 X114.22 Y91.49 E5.13374
G1 X114.45 Y91.58 E5.13820
G1 X114.83 Y91.24 E5.14766
G1 X114.99 Y91.14 E5.15100
G1 X115.17 Y91.10 E5.15450
G1 X115.78 Y91.09 E5.16560
G1 X116.41 Y91.47 E5.17905
G1 X117.02 Y92.15 E5.19578
G1 X117.50 Y93.00 E5.21363
G1 X117.77 Y93.84 E5.22988
G1 X117.75 Y94.53 E5.24245
G1 X117.50 Y94.87 E5.25010
G1 X117.01 Y95.07 E5.25973
G1 X116.38 Y95.08 E5.27118
G1 X115.70 Y94.86 E5.28432
G1 X115.49 Y94.75 E5.28853
G1 X115.29 Y94.96 E5.29389
G1 X115.84 Y96.00 E5.31544
G1 X115.93 Y96.06 E5.31748
G1 X132.41 Y96.07 E5.61888
G1 X132.92 Y96.14 E5.62836
G1 X133.44 Y96.27 E5.63820
G1 X133.93 Y96.46 E5.64780
G1 X134.39 Y96.71 E5.65730
G1 X134.82 Y97.03 E5.66710
G1 X135.21 Y97.39 E5.67680
G1 X135.54 Y97.79 E5.68630
G1 X135.82 Y98.24 E5.69603
G1 X136.05 Y98.72 E5.70569
G1 X136.21 Y99.22 E5.71535
G1 X136.31 Y99.73 E5.72481
G1 X136.34 Y100.26 E5.73460
G1 X136.31 Y100.82 E5.74481
G1 X136.20 Y101.33 E5.75432
G1 X136.03 Y101.84 E5.76411
G1 X135.81 Y102.30 E5.77358
G1 X135.54 Y102.73 E5.78290
G1 X135.19 Y103.15 E5.79284
G1 X134.80 Y103.51 E5.80255
G1 X134.37 Y103.82 E5.81235
G1 X133.91 Y104.07 E5.82182
G1 X133.41 Y104.26 E5.83154
G1 X132.92 Y104.39 E5.84082
G1 X132.41 Y104.45 E5.85029
G1 X128.98 Y104.46 E5.91302
G1 X128.86 Y104.61 E5.91644
G1 X129.18 Y106.23 E5.94668
G1 X129.10 Y106.41 E5.95024
G1 X128.90 Y106.52 E5.95445
G1 X128.56 Y106.55 E5.96069
G1 X128.18 Y106.46 E5.96780
G1 X127.90 Y106.30 E5.97375
G1 X127.73 Y106.03 E5.97955
G1 X127.50 Y105.47 E5.99069
G1 X127.25 Y104.55 E6.00812
G1 X127.14 Y104.46 E6.01067
G1 X122.89 Y104.46 E6.08835
G1 X122.78 Y104.65 E6.09245
G1 X123.27 Y105.60 E6.11189
G1 X123.65 Y106.67 E6.13264
G1 X123.74 Y107.69 E6.15152
G1 X123.68 Y107.99 E6.15714
G1 X123.59 Y108.15 E6.16043
G1 X123.50 Y108.23 E6.16256
G1 X123.42 Y108.27 E6.16434
G1 X123.04 Y108.31 E6.17119
G1 X122.95 Y108.41 E6.17359
G1 X122.92 Y108.57 E6.17669
G1 X122.80 Y108.65 E6.17932
G1 X122.62 Y108.70 E6.18276
G1 X121.78 Y108.58 E6.19832
G1 X120.94 Y108.33 E6.21435
G1 X120.22 Y107.94 E6.22938
G1 X119.72 Y107.47 E6.24191
G1 X119.59 Y107.16 E6.24793
G1 X119.63 Y106.93 E6.25233
G1 X119.78 Y106.75 E6.25663
G1 X120.00 Y106.66 E6.26105
G1 X120.87 Y106.64 E6.27687
G1 X121.83 Y106.86 E6.29493
G1 X121.99 Y106.68 E6.29926
G1 X121.82 Y106.21 E6.30835
G1 X120.71 Y104.51 E6.34558
G1 X120.62 Y104.46 E6.34737
G1 X115.64 Y104.46 E6.43847
G1 X115.53 Y104.57 E6.44137
G1 X115.52 Y104.64 E6.44256
G1 X115.44 Y104.83 E6.44642
G1 X115.24 Y104.94 E6.45063
G1 X114.90 Y104.97 E6.45687
G1 X114.52 Y104.88 E6.46398
G1 X114.24 Y104.72 E6.46993
G1 X114.11 Y104.51 E6.47449
G1 X114.02 Y104.46 E6.47636
G1 X108.20 Y104.46 E6.58275
G1 X108.08 Y104.62 E6.58637
G1 X108.65 Y106.67 E6.62526
G1 X108.52 Y106.82 E6.62887
G1 X108.18 Y106.89 E6.63518
G1 X107.72 Y106.84 E6.64373
G1 X107.32 Y106.66 E6.65169
G1 X107.13 Y106.42 E6.65736
G1 X107.17 Y106.03 E6.66450
G1 X107.16 Y105.98 E6.66548
G1 X106.53 Y104.53 E6.69430
G1 X106.43 Y104.46 E6.69659
G1 X103.09 Y104.46 E6.75771
G1 X102.97 Y104.57 E6.76060
G1 X102.96 Y104.84 E6.76553
G1 X103.02 Y104.94 E6.76779
G1 X103.31 Y105.09 E6.77384
G1 X103.44 Y105.27 E6.77784
G1 X103.44 Y105.48 E6.78170
G1 X103.25 Y105.74 E6.78750
G1 X102.88 Y105.95 E6.79530
G1 X102.48 Y106.06 E6.80292
G1 X101.71 Y106.04 E6.81700
G1 X101.09 Y105.89 E6.82869
G1 X100.55 Y105.63 E6.83960
G1 X100.09 Y105.34 E6.84955
G1 X99.68 Y104.97 E6.85967
G1 X99.35 Y104.51 E6.87006
G1 X99.27 Y104.46 E6.87182
G1 X67.57 Y104.45 E7.45176
G1 X67.05 Y104.38 E7.46136
G1 X66.54 Y104.25 E7.47086
G1 X66.04 Y104.05 E7.48072
G1 X65.58 Y103.79 E7.49035
