;Generated with Cura_SteamEngine 13.11.2
M109 T0 S230.000000
T0
;Sliced ?filename? at: Sat 15-02-2014 23:52:53
;Basic settings: Layer height: 0.2 Walls: 0.4 Fill: 30
;Print time: #P_TIME#
;Filament used: #F_AMNT#m #F_WGHT#g
;Filament cost: #F_COST#
G21        ;metric values
G90        ;absolute positioning
M107       ;start with the fan off
G28 X0 Y0  ;move X/Y to min endstops
G28 Z0     ;move Z to min endstops
G92 X0 Y0 Z0 E0         ;reset software position to front/left/z=0.0
G1 Z15.0 F?max_z_speed? ;move the platform down 15mm
G92 E0                  ;zero the extruded length
G1 F200 E10              ;extrude 3mm of feed stock
;E10 ipv E3 voor kop voldoende te vullen
G92 E0                  ;zero the extruded length again
;go to the middle of the platform (disabled, as there is no need to go to the center)
;G1 X?machine_center_x? Y?machine_center_y? F9000
G1 F9000

;Layer count: 25
;LAYER:0
M107
G0 F3600 X60.84 Y93.25 Z0.30
;TYPE:SKIRT
G1 F2400 E0.00000
G1 F1200 X61.01 Y93.15 E0.00370
G1 X61.67 Y92.78 E0.01750
G1 X61.86 Y92.70 E0.02119
G1 X62.56 Y92.42 E0.03498
G1 X62.75 Y92.36 E0.03860
G1 X63.48 Y92.17 E0.05238
G1 X63.67 Y92.13 E0.05610
G1 X64.42 Y92.04 E0.06986
G1 X64.62 Y92.03 E0.07347
G1 X67.09 Y92.02 E0.11869
G1 X68.01 Y91.48 E0.13818
G1 X68.61 Y91.27 E0.14982
G1 X70.42 Y91.02 E0.18326
G1 X70.92 Y91.02 E0.19244
G1 X73.36 Y91.45 E0.23774
G1 X73.92 Y91.67 E0.24884
G1 X74.50 Y92.02 E0.26111
G1 X76.46 Y92.02 E0.29696
G1 X77.70 Y91.32 E0.32311
G1 X78.42 Y91.12 E0.33675
G1 X80.21 Y91.04 E0.36951
G1 X80.82 Y91.14 E0.38074
G1 X81.33 Y91.31 E0.39067
G1 X81.77 Y91.12 E0.39939
G1 X82.57 Y90.99 E0.41429
G1 X84.35 Y91.16 E0.44702
G1 X85.11 Y91.43 E0.46172
G1 X85.98 Y92.02 E0.48085
G1 X86.02 Y92.02 E0.48156
G1 X87.35 Y91.29 E0.50945
G1 X88.05 Y91.09 E0.52273
G1 X89.53 Y91.02 E0.54989
G1 X89.74 Y91.02 E0.55370
G1 X91.18 Y91.14 E0.58013
G1 X91.29 Y91.15 E0.58219
G1 X95.35 Y91.77 E0.65728
G1 X95.61 Y92.02 E0.66383
G1 X96.38 Y92.02 E0.67788
G1 X97.14 Y91.54 E0.69436
G1 X98.93 Y91.06 E0.72818
G1 X99.42 Y91.01 E0.73723
G1 X101.05 Y91.09 E0.76705
G1 X101.42 Y91.15 E0.77404
G1 X102.11 Y91.35 E0.78712
G1 X102.99 Y91.20 E0.80344
G1 X103.45 Y91.20 E0.81182
G1 X104.54 Y91.33 E0.83201
G1 X105.14 Y91.53 E0.84357
G1 X105.31 Y91.62 E0.84701
G1 X105.78 Y91.39 E0.85661
G1 X106.80 Y91.11 E0.87597
G1 X107.17 Y91.05 E0.88282
G1 X108.12 Y91.02 E0.90019
G1 X108.43 Y91.03 E0.90595
G1 X109.36 Y91.18 E0.92311
G1 X109.75 Y91.30 E0.93056
G1 X110.73 Y91.73 E0.95016
G1 X112.13 Y91.46 E0.97622
G1 X112.89 Y91.50 E0.99010
G1 X114.47 Y91.95 E1.02021
G1 X114.86 Y91.66 E1.02926
G1 X115.40 Y91.39 E1.04031
G1 X116.42 Y91.11 E1.05967
G1 X116.79 Y91.05 E1.06652
G1 X117.74 Y91.02 E1.08390
G1 X118.06 Y91.03 E1.08965
G1 X118.98 Y91.18 E1.10681
G1 X119.37 Y91.30 E1.11427
G1 X120.35 Y91.73 E1.13386
G1 X121.75 Y91.46 E1.15992
G1 X122.51 Y91.50 E1.17380
G1 X124.13 Y91.97 E1.20465
G1 X124.22 Y92.02 E1.20664
G1 X126.05 Y92.02 E1.24004
G1 X126.79 Y91.56 E1.25594
G1 X127.28 Y91.35 E1.26578
G1 X128.54 Y91.07 E1.28927
G1 X128.88 Y91.03 E1.29560
G1 X130.24 Y91.02 E1.32039
G1 X130.47 Y91.03 E1.32461
G1 X131.81 Y91.22 E1.34953
G1 X132.06 Y91.27 E1.35406
G1 X133.38 Y91.67 E1.37943
G1 X133.84 Y91.89 E1.38871
G1 X134.03 Y92.02 E1.39297
G1 X135.38 Y92.03 E1.41768
G1 X135.58 Y92.04 E1.42126
G1 X136.32 Y92.13 E1.43500
G1 X136.52 Y92.17 E1.43872
G1 X137.25 Y92.36 E1.45249
G1 X137.44 Y92.42 E1.45611
G1 X138.14 Y92.70 E1.46990
G1 X138.32 Y92.78 E1.47360
G1 X138.99 Y93.15 E1.48740
G1 X139.16 Y93.25 E1.49110
G1 X139.77 Y93.70 E1.50487
G1 X139.92 Y93.83 E1.50852
G1 X140.47 Y94.34 E1.52232
G1 X140.61 Y94.49 E1.52603
G1 X141.09 Y95.07 E1.53985
G1 X141.21 Y95.23 E1.54353
G1 X141.61 Y95.87 E1.55729
G1 X141.71 Y96.04 E1.56091
G1 X142.03 Y96.72 E1.57471
G1 X142.10 Y96.92 E1.57845
G1 X142.34 Y97.63 E1.59223
G1 X142.38 Y97.82 E1.59586
G1 X142.53 Y98.56 E1.60962
G1 X142.55 Y98.76 E1.61333
G1 X142.60 Y99.52 E1.62723
G1 X142.60 Y99.73 E1.63110
G1 X142.54 Y100.52 E1.64548
G1 X142.52 Y100.72 E1.64917
G1 X142.37 Y101.46 E1.66293
G1 X142.32 Y101.65 E1.66654
G1 X142.09 Y102.36 E1.68034
G1 X142.01 Y102.56 E1.68412
G1 X141.69 Y103.23 E1.69784
G1 X141.59 Y103.40 E1.70132
G1 X141.20 Y104.01 E1.71458
G1 X141.08 Y104.18 E1.71843
G1 X140.57 Y104.78 E1.73278
G1 X140.44 Y104.92 E1.73644
G1 X139.88 Y105.44 E1.75023
G1 X139.73 Y105.57 E1.75392
G1 X139.12 Y106.00 E1.76771
G1 X138.95 Y106.11 E1.77139
G1 X138.28 Y106.47 E1.78520
G1 X138.10 Y106.56 E1.78895
G1 X137.40 Y106.83 E1.80260
G1 X137.22 Y106.88 E1.80596
G1 X136.53 Y107.06 E1.81915
G1 X136.33 Y107.10 E1.82290
G1 X135.58 Y107.20 E1.83673
G1 X135.38 Y107.21 E1.84039
G1 X78.92 Y107.22 E2.87311
G1 X78.78 Y107.38 E2.87696
G1 X77.83 Y108.10 E2.89892
G1 X77.47 Y108.30 E2.90639
G1 X76.42 Y108.73 E2.92721
G1 X75.95 Y108.85 E2.93609
G1 X74.42 Y108.98 E2.96412
G1 X74.08 Y108.98 E2.97032
G1 X72.80 Y108.82 E2.99394
G1 X72.48 Y108.74 E2.99985
G1 X71.38 Y108.37 E3.02117
G1 X71.18 Y108.29 E3.02509
G1 X70.23 Y107.82 E3.04449
G1 X70.02 Y107.69 E3.04895
G1 X69.35 Y107.22 E3.06408
G1 X64.59 Y107.21 E3.15116
G1 X64.38 Y107.19 E3.15494
G1 X63.63 Y107.09 E3.16881
G1 X63.43 Y107.05 E3.17258
G1 X62.70 Y106.86 E3.18636
G1 X62.51 Y106.80 E3.18993
G1 X61.82 Y106.52 E3.20368
G1 X61.63 Y106.43 E3.20742
G1 X60.97 Y106.06 E3.22121
G1 X60.81 Y105.96 E3.22485
G1 X60.20 Y105.51 E3.23855
G1 X60.05 Y105.39 E3.24208
G1 X59.52 Y104.89 E3.25541
G1 X59.38 Y104.73 E3.25928
G1 X58.88 Y104.13 E3.27365
G1 X58.77 Y103.96 E3.27734
G1 X58.37 Y103.33 E3.29100
G1 X58.28 Y103.17 E3.29439
G1 X57.97 Y102.51 E3.30767
G1 X57.89 Y102.31 E3.31164
G1 X57.66 Y101.56 E3.32594
G1 X57.61 Y101.38 E3.32938
G1 X57.47 Y100.67 E3.34256
G1 X57.45 Y100.47 E3.34625
G1 X57.40 Y99.72 E3.36005
G1 X57.40 Y99.52 E3.36375
G1 X57.45 Y98.76 E3.37757
G1 X57.47 Y98.56 E3.38128
G1 X57.61 Y97.82 E3.39504
G1 X57.66 Y97.63 E3.39867
G1 X57.90 Y96.92 E3.41246
G1 X57.97 Y96.72 E3.41619
G1 X58.29 Y96.04 E3.42999
G1 X58.39 Y95.87 E3.43362
G1 X58.79 Y95.23 E3.44738
G1 X58.91 Y95.07 E3.45106
G1 X59.39 Y94.49 E3.46487
G1 X59.53 Y94.34 E3.46858
G1 X60.08 Y93.83 E3.48238
G1 X60.23 Y93.70 E3.48603
G1 X60.84 Y93.25 E3.49981
G0 F3600 X62.91 Y96.33
G0 X62.91 Y96.33
G0 X62.76 Y96.07
;TYPE:WALL-OUTER
G1 F1200 X63.21 Y95.82 E3.50930
G1 X63.70 Y95.63 E3.51890
G1 X64.22 Y95.49 E3.52875
G1 X64.73 Y95.43 E3.53821
G1 X68.34 Y95.42 E3.60428
G1 X68.44 Y95.36 E3.60627
G1 X68.59 Y95.08 E3.61214
G1 X69.43 Y94.58 E3.62997
G1 X70.61 Y94.42 E3.65167
G1 X72.43 Y94.74 E3.68559
G1 X73.51 Y95.40 E3.70864
G1 X73.56 Y95.42 E3.70967
G1 X77.92 Y95.42 E3.78944
G1 X78.02 Y95.35 E3.79170
G1 X78.19 Y94.95 E3.79965
G1 X78.99 Y94.50 E3.81645
G1 X80.02 Y94.46 E3.83522
G1 X80.97 Y94.79 E3.85368
G1 X81.79 Y95.41 E3.87253
G1 X82.00 Y95.33 E3.87662
G1 X82.12 Y94.68 E3.88870
G1 X82.71 Y94.42 E3.90037
G1 X83.58 Y94.50 E3.91642
G1 X84.34 Y95.02 E3.93320
G1 X84.45 Y95.34 E3.93947
G1 X84.56 Y95.42 E3.94183
G1 X88.09 Y95.42 E4.00653
G1 X88.21 Y95.31 E4.00939
G1 X88.26 Y94.67 E4.02121
G1 X88.62 Y94.47 E4.02887
G1 X89.59 Y94.42 E4.04651
G1 X90.84 Y94.52 E4.06943
G1 X93.69 Y94.96 E4.12222
G1 X93.76 Y95.33 E4.12911
G1 X93.87 Y95.42 E4.13176
G1 X97.86 Y95.42 E4.20471
G1 X97.94 Y95.38 E4.20631
G1 X98.54 Y94.69 E4.22318
G1 X99.54 Y94.42 E4.24202
G1 X100.67 Y94.47 E4.26283
G1 X101.59 Y94.74 E4.28039
G1 X101.93 Y94.94 E4.28741
G1 X102.20 Y95.31 E4.29579
G1 X102.45 Y95.25 E4.30047
G1 X102.54 Y94.85 E4.30810
G1 X102.82 Y94.68 E4.31402
G1 X103.29 Y94.60 E4.32270
G1 X103.78 Y94.66 E4.33170
G1 X104.11 Y94.85 E4.33866
G1 X104.23 Y95.18 E4.34518
G1 X104.24 Y95.31 E4.34759
G1 X104.36 Y95.42 E4.35042
G1 X106.58 Y95.42 E4.39114
G1 X106.70 Y95.31 E4.39411
G1 X106.72 Y94.80 E4.40339
G1 X107.01 Y94.58 E4.41017
G1 X107.50 Y94.44 E4.41947
G1 X108.07 Y94.42 E4.42977
G1 X108.59 Y94.50 E4.43941
G1 X108.95 Y94.67 E4.44671
G1 X109.10 Y94.88 E4.45146
G1 X109.17 Y95.06 E4.45517
G1 X109.22 Y95.12 E4.45649
G1 X109.47 Y95.25 E4.46155
G1 X109.57 Y95.38 E4.46451
G1 X109.65 Y95.42 E4.46621
G1 X111.59 Y95.42 E4.50170
G1 X111.70 Y95.34 E4.50415
G1 X111.80 Y94.99 E4.51087
G1 X112.35 Y94.88 E4.52109
G1 X113.14 Y95.11 E4.53616
G1 X113.43 Y95.39 E4.54356
G1 X113.50 Y95.42 E4.54498
G1 X116.21 Y95.42 E4.59446
G1 X116.33 Y95.31 E4.59743
G1 X116.34 Y94.80 E4.60670
G1 X116.64 Y94.58 E4.61348
G1 X117.13 Y94.44 E4.62279
G1 X117.69 Y94.42 E4.63309
G1 X118.21 Y94.50 E4.64273
G1 X118.58 Y94.67 E4.65003
G1 X118.73 Y94.88 E4.65478
G1 X118.80 Y95.06 E4.65849
G1 X118.85 Y95.12 E4.65981
G1 X119.09 Y95.25 E4.66487
G1 X119.19 Y95.38 E4.66783
G1 X119.27 Y95.42 E4.66953
G1 X121.21 Y95.42 E4.70502
G1 X121.32 Y95.34 E4.70746
G1 X121.43 Y94.99 E4.71418
G1 X121.97 Y94.88 E4.72441
G1 X122.77 Y95.11 E4.73948
G1 X123.06 Y95.39 E4.74688
G1 X123.13 Y95.42 E4.74830
G1 X127.34 Y95.42 E4.82539
G1 X127.44 Y95.36 E4.82739
G1 X127.61 Y95.05 E4.83386
G1 X128.34 Y94.60 E4.84950
G1 X129.10 Y94.43 E4.86387
G1 X130.13 Y94.42 E4.88273
G1 X131.21 Y94.57 E4.90267
G1 X132.14 Y94.84 E4.92036
G1 X132.65 Y95.20 E4.93181
G1 X132.66 Y95.32 E4.93389
G1 X132.78 Y95.42 E4.93668
G1 X135.27 Y95.43 E4.98223
G1 X135.78 Y95.49 E4.99169
G1 X136.30 Y95.63 E5.00153
G1 X136.79 Y95.82 E5.01113
G1 X137.24 Y96.07 E5.02063
G1 X137.68 Y96.38 E5.03042
G1 X138.06 Y96.75 E5.04013
G1 X138.40 Y97.15 E5.04963
G1 X138.68 Y97.60 E5.05935
G1 X138.91 Y98.07 E5.06902
G1 X139.07 Y98.58 E5.07866
G1 X139.16 Y99.08 E5.08814
G1 X139.20 Y99.62 E5.09792
G1 X139.16 Y100.18 E5.10816
G1 X139.06 Y100.69 E5.11767
G1 X138.89 Y101.19 E5.12738
G1 X138.67 Y101.66 E5.13698
G1 X138.40 Y102.09 E5.14623
G1 X138.05 Y102.51 E5.15618
G1 X137.66 Y102.87 E5.16589
G1 X137.22 Y103.18 E5.17568
G1 X136.77 Y103.43 E5.18515
G1 X136.27 Y103.62 E5.19487
G1 X135.78 Y103.75 E5.20415
G1 X135.27 Y103.81 E5.21361
G1 X76.69 Y103.82 E6.28515
G1 X76.58 Y104.05 E6.28980
G1 X76.64 Y104.11 E6.29138
G1 X76.68 Y104.46 E6.29774
G1 X76.44 Y104.88 E6.30666
G1 X75.96 Y105.25 E6.31764
G1 X75.38 Y105.49 E6.32925
G1 X74.31 Y105.58 E6.34879
G1 X73.40 Y105.47 E6.36557
G1 X72.59 Y105.19 E6.38128
G1 X71.87 Y104.83 E6.39597
G1 X71.24 Y104.39 E6.41006
G1 X70.76 Y103.85 E6.42329
G1 X70.68 Y103.82 E6.42484
G1 X64.71 Y103.81 E6.53407
G1 X64.19 Y103.74 E6.54367
G1 X63.69 Y103.61 E6.55317
G1 X63.19 Y103.40 E6.56303
G1 X62.73 Y103.15 E6.57266
G1 X62.31 Y102.84 E6.58216
G1 X61.94 Y102.49 E6.59146
G1 X61.59 Y102.07 E6.60144
G1 X61.31 Y101.62 E6.61119
G1 X61.09 Y101.16 E6.62038
G1 X60.93 Y100.63 E6.63057
G1 X60.84 Y100.15 E6.63953
G1 X60.80 Y99.62 E6.64928
G1 X60.84 Y99.08 E6.65909
G1 X60.93 Y98.58 E6.66857
G1 X61.09 Y98.07 E6.67820
G1 X61.32 Y97.60 E6.68787
G1 X61.60 Y97.15 E6.69760
G1 X61.94 Y96.75 E6.70710
G1 X62.32 Y96.38 E6.71680
G1 X62.76 Y96.07 E6.72660
G0 F3600 X62.91 Y96.33
G0 X63.39 Y97.08
G0 X63.55 Y97.34
G1 F1200 X63.26 Y97.55 E6.73308
G1 X63.02 Y97.79 E6.73931
G1 X62.80 Y98.05 E6.74549
G1 X62.63 Y98.33 E6.75146
G1 X62.48 Y98.64 E6.75786
G1 X62.38 Y98.95 E6.76378
G1 X62.32 Y99.28 E6.76998
G1 X62.30 Y99.62 E6.77621
G1 X62.32 Y99.96 E6.78241
G1 X62.39 Y100.30 E6.78861
G1 X62.49 Y100.62 E6.79481
G1 X62.64 Y100.92 E6.80100
G1 X62.82 Y101.21 E6.80721
G1 X63.04 Y101.47 E6.81342
G1 X63.28 Y101.70 E6.81963
G1 X63.56 Y101.90 E6.82581
G1 X63.84 Y102.06 E6.83179
G1 X64.17 Y102.19 E6.83822
G1 X64.50 Y102.27 E6.84443
G1 X64.84 Y102.31 E6.85064
G1 X65.17 Y102.31 E6.85681
G1 X65.51 Y102.27 E6.86304
G1 X65.84 Y102.18 E6.86922
G1 X66.16 Y102.06 E6.87544
G1 X66.45 Y101.89 E6.88164
G1 X66.72 Y101.69 E6.88783
G1 X66.97 Y101.46 E6.89404
G1 X67.19 Y101.20 E6.90024
G1 X67.37 Y100.91 E6.90645
G1 X67.51 Y100.61 E6.91263
G1 X67.61 Y100.28 E6.91884
G1 X67.68 Y99.95 E6.92504
G1 X67.70 Y99.61 E6.93125
G1 X67.67 Y99.26 E6.93776
G1 X67.61 Y98.92 E6.94396
G1 X67.50 Y98.61 E6.94995
G1 X67.50 Y98.60 E6.95019
G1 X67.35 Y98.30 E6.95637
G1 X67.17 Y98.01 E6.96257
G1 X66.95 Y97.75 E6.96874
G1 X66.71 Y97.53 E6.97471
G1 X66.43 Y97.33 E6.98116
G1 X66.14 Y97.17 E6.98713
G1 X66.13 Y97.17 E6.98737
G1 X65.81 Y97.05 E6.99358
G1 X65.48 Y96.96 E6.99976
G1 X65.16 Y96.92 E7.00570
G1 X64.81 Y96.93 E7.01214
G1 X64.47 Y96.97 E7.01836
G1 X64.14 Y97.06 E7.02456
G1 X63.83 Y97.19 E7.03075
G1 X63.55 Y97.34 E7.03668
G0 F3600 X63.39 Y97.08
G0 X65.17 Y96.52
G0 X98.45 Y96.64
G0 X98.75 Y96.65
G1 F1200 X98.75 Y100.57 E7.10844
G1 X98.82 Y100.99 E7.11610
G1 X98.98 Y101.31 E7.12277
G1 X99.26 Y101.56 E7.12966
G1 X99.30 Y101.59 E7.13053
G1 X99.61 Y101.67 E7.13633
G1 X101.44 Y101.67 E7.16972
G1 X101.46 Y101.67 E7.17018
G1 X101.77 Y101.59 E7.17598
G1 X101.81 Y101.56 E7.17685
G1 X102.09 Y101.31 E7.18374
G1 X102.27 Y100.95 E7.19100
G1 X102.32 Y100.57 E7.19805
G1 X102.33 Y98.29 E7.23989
G1 X102.32 Y98.27 E7.24017
G1 X102.26 Y97.86 E7.24781
G1 X102.09 Y97.54 E7.25448
G1 X101.81 Y97.28 E7.26137
G1 X101.77 Y97.26 E7.26223
G1 X101.46 Y97.18 E7.26803
G1 X99.73 Y97.18 E7.29970
G1 X99.73 Y96.72 E7.30812
G1 X101.66 Y96.72 E7.34335
G1 X101.78 Y96.60 E7.34640
G1 X101.78 Y95.67 E7.36338
G1 X101.66 Y95.55 E7.36642
G1 X99.61 Y95.56 E7.40386
G1 X99.30 Y95.64 E7.40967
G1 X99.26 Y95.66 E7.41054
G1 X99.01 Y95.89 E7.41676
G1 X98.98 Y95.91 E7.41744
G1 X98.81 Y96.27 E7.42470
G1 X98.75 Y96.65 E7.43174
G1 F2400 E2.93174
G0 F3600 X102.63 Y100.55
G1 F2400 E7.43174
G1 F1200 X102.51 Y100.67 E7.43477
G1 X102.51 Y101.59 E7.45173
G1 X102.63 Y101.71 E7.45477
G1 X104.51 Y101.71 E7.48920
G1 X104.82 Y101.63 E7.49505
G1 X104.86 Y101.61 E7.49593
G1 X105.12 Y101.38 E7.50217
G1 X105.14 Y101.35 E7.50283
G1 X105.32 Y101.00 E7.51013
G1 X105.38 Y100.62 E7.51716
G1 X105.38 Y97.34 E7.57716
G1 X105.26 Y97.22 E7.58020
G1 X104.51 Y97.22 E7.59396
G1 X104.39 Y97.34 E7.59698
G1 X104.39 Y100.55 E7.65576
G1 X102.63 Y100.55 E7.68805
G0 F3600 X105.62 Y100.61
G1 F1200 X105.69 Y101.03 E7.69568
G1 X105.86 Y101.35 E7.70235
G1 X106.14 Y101.61 E7.70924
G1 X106.18 Y101.63 E7.71010
G1 X106.48 Y101.71 E7.71590
G1 X108.31 Y101.71 E7.74931
G1 X108.34 Y101.71 E7.74979
G1 X108.64 Y101.63 E7.75559
G1 X108.69 Y101.61 E7.75645
G1 X108.96 Y101.35 E7.76334
G1 X109.14 Y101.00 E7.77060
G1 X109.20 Y100.62 E7.77764
G1 X109.20 Y98.33 E7.81949
G1 X109.20 Y98.31 E7.81977
G1 X109.13 Y97.90 E7.82739
G1 X108.96 Y97.58 E7.83406
G1 X108.94 Y97.55 E7.83474
G1 X108.69 Y97.32 E7.84096
G1 X108.64 Y97.30 E7.84184
G1 X108.34 Y97.22 E7.84765
G1 X108.31 Y97.22 E7.84811
G1 X106.49 Y97.22 E7.88150
G1 X106.18 Y97.30 E7.88732
G1 X106.14 Y97.32 E7.88819
G1 X105.88 Y97.55 E7.89441
G1 X105.86 Y97.58 E7.89509
G1 X105.68 Y97.93 E7.90236
G1 X105.62 Y98.31 E7.90939
G1 X105.62 Y100.61 E7.95148
G1 F2400 E3.45148
G0 F3600 X110.47 Y98.25
G1 F2400 E7.95148
G1 F1200 X110.58 Y98.37 E7.95452
G1 X111.28 Y98.37 E7.96720
G1 X111.39 Y98.25 E7.97025
G1 X111.39 Y97.33 E7.98721
G1 X111.28 Y97.21 E7.99025
G1 X110.58 Y97.21 E8.00293
G1 X110.47 Y97.33 E8.00596
G1 X110.47 Y98.25 E8.02291
G0 F3600 X110.17 Y98.25
G0 X110.08 Y97.17
G0 X110.42 Y96.83
G0 X111.43 Y96.83
G0 X111.78 Y97.17
G0 X112.20 Y98.30
G0 X112.50 Y98.31
G1 F1200 X112.50 Y100.61 E8.06501
G1 X112.57 Y101.03 E8.07264
G1 X112.73 Y101.35 E8.07931
G1 X113.01 Y101.61 E8.08620
G1 X113.05 Y101.63 E8.08706
G1 X113.36 Y101.71 E8.09286
G1 X115.09 Y101.71 E8.12457
G1 X115.09 Y102.93 E8.14694
G1 X115.21 Y103.05 E8.14998
G1 X115.96 Y103.05 E8.16364
G1 X116.08 Y102.93 E8.16670
G1 X116.08 Y101.16 E8.19909
G1 X116.19 Y101.38 E8.20362
G1 X116.45 Y101.61 E8.20984
G1 X116.49 Y101.63 E8.21070
G1 X116.80 Y101.71 E8.21651
G1 X119.39 Y101.71 E8.26401
G1 X119.51 Y101.59 E8.26707
G1 X119.51 Y100.67 E8.28402
G1 X119.39 Y100.55 E8.28706
G1 X116.92 Y100.55 E8.33236
G1 X116.92 Y100.05 E8.34156
G1 X119.39 Y100.05 E8.38686
G1 X119.51 Y99.93 E8.38991
G1 X119.51 Y98.31 E8.41945
G1 X119.44 Y97.90 E8.42706
G1 X119.25 Y97.55 E8.43440
G1 X119.00 Y97.32 E8.44064
G1 X118.96 Y97.30 E8.44152
G1 X118.65 Y97.22 E8.44732
G1 X116.05 Y97.22 E8.49479
G1 X116.01 Y97.27 E8.49603
G1 X115.96 Y97.22 E8.49729
G1 X113.36 Y97.22 E8.54478
G1 X113.05 Y97.30 E8.55059
G1 X113.01 Y97.32 E8.55147
G1 X112.76 Y97.55 E8.55769
G1 X112.73 Y97.58 E8.55837
G1 X112.56 Y97.93 E8.56564
G1 X112.50 Y98.31 E8.57267
G0 F3600 X112.20 Y98.30
G0 X112.47 Y97.28
G0 X113.36 Y96.82
G0 X119.23 Y96.99
G0 X119.91 Y98.26
G0 X120.21 Y98.26
